MODULE Module1
    CONST robtarget Target_10:=[[43.342201184,176.863799653,1.909062315],[0.000067748,0.768582902,0.639750195,0.000081879],[-2,-1,1,0],[9E+09,9E+09,9E+09,9E+09,9E+09,9E+09]];
    CONST robtarget Target_20:=[[42.146843099,175.260328736,1.908807247],[0.000067748,0.768582902,0.639750195,0.000081879],[-2,-1,1,0],[9E+09,9E+09,9E+09,9E+09,9E+09,9E+09]];
    CONST robtarget Target_30:=[[48.960724935,170.480055498,1.910252512],[0.000067748,0.768582902,0.639750195,0.000081879],[-2,-1,1,0],[9E+09,9E+09,9E+09,9E+09,9E+09,9E+09]];
    CONST robtarget Target_40:=[[45.595515653,158.470252587,1.909529753],[0.000067748,0.768582902,0.639750195,0.000081879],[-2,-1,1,0],[9E+09,9E+09,9E+09,9E+09,9E+09,9E+09]];
    CONST robtarget Target_50:=[[45.214644342,151.86912109,1.909444677],[0.000067748,0.768582902,0.639750195,0.000081879],[-2,-1,1,0],[9E+09,9E+09,9E+09,9E+09,9E+09,9E+09]];
    CONST robtarget Target_60:=[[49.427957549,147.281312134,1.910337326],[0.000067748,0.768582902,0.639750195,0.000081879],[-2,-1,1,0],[9E+09,9E+09,9E+09,9E+09,9E+09,9E+09]];
    CONST robtarget Target_70:=[[64.842962289,142.125963636,1.913610477],[0.000067748,0.768582902,0.639750195,0.000081879],[-2,-1,1,0],[9E+09,9E+09,9E+09,9E+09,9E+09,9E+09]];
    CONST robtarget Target_80:=[[70.454530768,138.142209402,1.914800695],[0.000067748,0.768582902,0.639750195,0.000081879],[-2,-1,1,0],[9E+09,9E+09,9E+09,9E+09,9E+09,9E+09]];
    CONST robtarget Target_90:=[[68.695110791,124.137051738,1.91441799],[0.000067748,0.768582902,0.639750195,0.000081879],[-2,-1,1,0],[9E+09,9E+09,9E+09,9E+09,9E+09,9E+09]];
    CONST robtarget Target_100:=[[72.115382649,117.146934436,1.915140582],[0.000067748,0.768582902,0.639750195,0.000081879],[-2,-1,1,0],[9E+09,9E+09,9E+09,9E+09,9E+09,9E+09]];
    CONST robtarget Target_110:=[[78.927525667,112.966658678,1.916585853],[0.000067748,0.768582902,0.639750195,0.000081879],[-2,-1,1,0],[9E+09,9E+09,9E+09,9E+09,9E+09,9E+09]];
    CONST robtarget Target_120:=[[92.531525492,111.606077768,1.919476455],[0.000067748,0.768582902,0.639750195,0.000081879],[-2,-1,1,0],[9E+09,9E+09,9E+09,9E+09,9E+09,9E+09]];
    CONST robtarget Target_130:=[[96.780774275,94.618320883,1.920368996],[0.000067748,0.768582902,0.639750195,0.000081879],[-2,-1,1,0],[9E+09,9E+09,9E+09,9E+09,9E+09,9E+09]];
    CONST robtarget Target_140:=[[102.596399151,89.235152134,1.92160171],[0.000067748,0.768582902,0.639750195,0.000081879],[-2,-1,1,0],[9E+09,9E+09,9E+09,9E+09,9E+09,9E+09]];
    CONST robtarget Target_150:=[[109.599847234,88.055443385,1.923089516],[0.000067748,0.768582902,0.639750195,0.000081879],[-2,-1,1,0],[9E+09,9E+09,9E+09,9E+09,9E+09,9E+09]];
    CONST robtarget Target_160:=[[117.592278581,90.678616708,1.924789901],[0.000067748,0.768582902,0.639750195,0.000081879],[-2,-1,1,0],[9E+09,9E+09,9E+09,9E+09,9E+09,9E+09]];
    CONST robtarget Target_170:=[[119.575461561,96.484388413,1.925215042],[0.000067748,0.768582902,0.639750195,0.000081879],[-2,-1,1,0],[9E+09,9E+09,9E+09,9E+09,9E+09,9E+09]];
    CONST robtarget Target_180:=[[114.525056944,113.869825194,1.92415247],[0.000067748,0.768582902,0.639750195,0.000081879],[-2,-1,1,0],[9E+09,9E+09,9E+09,9E+09,9E+09,9E+09]];
    CONST robtarget Target_190:=[[115.240081087,120.426291746,1.92430854],[0.000067748,0.768582902,0.639750195,0.000081879],[-2,-1,1,0],[9E+09,9E+09,9E+09,9E+09,9E+09,9E+09]];
    CONST robtarget Target_200:=[[114.085645421,127.468608872,1.924067571],[0.000067748,0.768582902,0.639750195,0.000081879],[-2,-1,1,0],[9E+09,9E+09,9E+09,9E+09,9E+09,9E+09]];
    CONST robtarget Target_210:=[[110.474068498,131.458159166,1.923302444],[0.000067748,0.768582902,0.639750195,0.000081879],[-2,-1,1,0],[9E+09,9E+09,9E+09,9E+09,9E+09,9E+09]];
    CONST robtarget Target_220:=[[82.046946915,140.775815634,1.917266242],[0.000067748,0.768582902,0.639750195,0.000081879],[-2,-1,1,0],[9E+09,9E+09,9E+09,9E+09,9E+09,9E+09]];
    CONST robtarget Target_230:=[[79.83130684,146.169417292,1.91679869],[0.000067748,0.768582902,0.639750195,0.000081879],[-2,-1,1,0],[9E+09,9E+09,9E+09,9E+09,9E+09,9E+09]];
    CONST robtarget Target_240:=[[75.825527667,148.157816772,1.915948527],[0.000067748,0.768582902,0.639750195,0.000081879],[-2,-1,1,0],[9E+09,9E+09,9E+09,9E+09,9E+09,9E+09]];
    CONST robtarget Target_250:=[[75.2064032,154.756050239,1.915821058],[0.000067748,0.768582902,0.639750195,0.000081879],[-2,-1,1,0],[9E+09,9E+09,9E+09,9E+09,9E+09,9E+09]];
    CONST robtarget Target_260:=[[81.575077453,165.57455228,1.917181442],[0.000067748,0.768582902,0.639750195,0.000081879],[-2,-1,1,0],[9E+09,9E+09,9E+09,9E+09,9E+09,9E+09]];
    CONST robtarget Target_270:=[[80.347261429,175.17103433,1.916926473],[0.000067748,0.768582902,0.639750195,0.000081879],[-2,-1,1,0],[9E+09,9E+09,9E+09,9E+09,9E+09,9E+09]];
    CONST robtarget Target_280:=[[67.311380738,187.533307866,1.914163494],[0.000067748,0.768582902,0.639750195,0.000081879],[-2,-1,1,0],[9E+09,9E+09,9E+09,9E+09,9E+09,9E+09]];
    CONST robtarget Target_290:=[[60.29692014,192.513000658,1.912675721],[0.000067748,0.768582902,0.639750195,0.000081879],[-2,-1,1,0],[9E+09,9E+09,9E+09,9E+09,9E+09,9E+09]];
    CONST robtarget Target_300:=[[61.087643065,195.715305644,1.912845786],[0.000067748,0.768582902,0.639750195,0.000081879],[-2,-1,1,0],[9E+09,9E+09,9E+09,9E+09,9E+09,9E+09]];
    CONST robtarget Target_310:=[[69.685288333,196.540225345,1.914673682],[0.000067748,0.768582902,0.639750195,0.000081879],[-2,-1,1,0],[9E+09,9E+09,9E+09,9E+09,9E+09,9E+09]];
    CONST robtarget Target_320:=[[70.276012103,199.741950725,1.914801237],[0.000067748,0.768582902,0.639750195,0.000081879],[-1,-1,1,0],[9E+09,9E+09,9E+09,9E+09,9E+09,9E+09]];
    CONST robtarget Target_330:=[[60.673734209,200.514126276,1.91276081],[0.000067748,0.768582902,0.639750195,0.000081879],[-1,-1,1,0],[9E+09,9E+09,9E+09,9E+09,9E+09,9E+09]];
    CONST robtarget Target_340:=[[56.077810872,199.100801216,1.911783089],[0.000067748,0.768582902,0.639750195,0.000081879],[-2,-1,1,0],[9E+09,9E+09,9E+09,9E+09,9E+09,9E+09]];
    CONST robtarget Target_350:=[[55.49172395,194.299082554,1.91165552],[0.000067748,0.768582902,0.639750195,0.000081879],[-2,-1,1,0],[9E+09,9E+09,9E+09,9E+09,9E+09,9E+09]];
    CONST robtarget Target_360:=[[77.349012913,174.562342759,1.916288832],[0.000067748,0.768582902,0.639750195,0.000081879],[-2,-1,1,0],[9E+09,9E+09,9E+09,9E+09,9E+09,9E+09]];
    CONST robtarget Target_370:=[[77.575673947,165.362960999,1.91633126],[0.000067748,0.768582902,0.639750195,0.000081879],[-2,-1,1,0],[9E+09,9E+09,9E+09,9E+09,9E+09,9E+09]];
    CONST robtarget Target_380:=[[72.41105187,153.147942473,1.915225917],[0.000067748,0.768582902,0.639750195,0.000081879],[-2,-1,1,0],[9E+09,9E+09,9E+09,9E+09,9E+09,9E+09]];
    CONST robtarget Target_390:=[[73.629014592,146.951446145,1.915480917],[0.000067748,0.768582902,0.639750195,0.000081879],[-2,-1,1,0],[9E+09,9E+09,9E+09,9E+09,9E+09,9E+09]];
    CONST robtarget Target_400:=[[87.063154776,135.190329301,1.918328919],[0.000067748,0.768582902,0.639750195,0.000081879],[-2,-1,1,0],[9E+09,9E+09,9E+09,9E+09,9E+09,9E+09]];
    CONST robtarget Target_410:=[[110.486819832,127.058177643,1.923302405],[0.000067748,0.768582902,0.639750195,0.000081879],[-2,-1,1,0],[9E+09,9E+09,9E+09,9E+09,9E+09,9E+09]];
    CONST robtarget Target_420:=[[110.316960191,116.657641709,1.923259804],[0.000067748,0.768582902,0.639750195,0.000081879],[-2,-1,1,0],[9E+09,9E+09,9E+09,9E+09,9E+09,9E+09]];
    CONST robtarget Target_430:=[[115.169684077,98.471628681,1.924279861],[0.000067748,0.768582902,0.639750195,0.000081879],[-2,-1,1,0],[9E+09,9E+09,9E+09,9E+09,9E+09,9E+09]];
    CONST robtarget Target_440:=[[114.784755523,93.270491306,1.924194797],[0.000067748,0.768582902,0.639750195,0.000081879],[-2,-1,1,0],[9E+09,9E+09,9E+09,9E+09,9E+09,9E+09]];
    CONST robtarget Target_450:=[[109.790572693,91.256009553,1.923132054],[0.000067748,0.768582902,0.639750195,0.000081879],[-2,-1,1,0],[9E+09,9E+09,9E+09,9E+09,9E+09,9E+09]];
    CONST robtarget Target_460:=[[104.186539093,92.639774705,1.921941813],[0.000067748,0.768582902,0.639750195,0.000081879],[-2,-1,1,0],[9E+09,9E+09,9E+09,9E+09,9E+09,9E+09]];
    CONST robtarget Target_470:=[[96.159331384,102.01655099,1.920241534],[0.000067748,0.768582902,0.639750195,0.000081879],[-2,-1,1,0],[9E+09,9E+09,9E+09,9E+09,9E+09,9E+09]];
    CONST robtarget Target_480:=[[97.326288772,113.419980754,1.920496688],[0.000067748,0.768582902,0.639750195,0.000081879],[-2,-1,1,0],[9E+09,9E+09,9E+09,9E+09,9E+09,9E+09]];
    CONST robtarget Target_490:=[[84.322286414,114.782300482,1.917733613],[0.000067748,0.768582902,0.639750195,0.000081879],[-2,-1,1,0],[9E+09,9E+09,9E+09,9E+09,9E+09,9E+09]];
    CONST robtarget Target_500:=[[75.709571389,119.157358946,1.915905763],[0.000067748,0.768582902,0.639750195,0.000081879],[-2,-1,1,0],[9E+09,9E+09,9E+09,9E+09,9E+09,9E+09]];
    CONST robtarget Target_510:=[[71.487564091,126.745155304,1.91501314],[0.000067748,0.768582902,0.639750195,0.000081879],[-2,-1,1,0],[9E+09,9E+09,9E+09,9E+09,9E+09,9E+09]];
    CONST robtarget Target_520:=[[74.056833993,137.35264567,1.91556585],[0.000067748,0.768582902,0.639750195,0.000081879],[-2,-1,1,0],[9E+09,9E+09,9E+09,9E+09,9E+09,9E+09]];
    CONST robtarget Target_530:=[[69.445261293,141.339297934,1.914588178],[0.000067748,0.768582902,0.639750195,0.000081879],[-2,-1,1,0],[9E+09,9E+09,9E+09,9E+09,9E+09,9E+09]];
    CONST robtarget Target_540:=[[59.235451053,144.709723748,1.912420246],[0.000067748,0.768582902,0.639750195,0.000081879],[-2,-1,1,0],[9E+09,9E+09,9E+09,9E+09,9E+09,9E+09]];
    CONST robtarget Target_550:=[[52.225627304,148.089423259,1.91093246],[0.000067748,0.768582902,0.639750195,0.000081879],[-2,-1,1,0],[9E+09,9E+09,9E+09,9E+09,9E+09,9E+09]];
    CONST robtarget Target_560:=[[49.206512969,154.680701453,1.910294882],[0.000067748,0.768582902,0.639750195,0.000081879],[-2,-1,1,0],[9E+09,9E+09,9E+09,9E+09,9E+09,9E+09]];
    CONST robtarget Target_570:=[[51.183899889,162.486464759,1.910720041],[0.000067748,0.768582902,0.639750195,0.000081879],[-2,-1,1,0],[9E+09,9E+09,9E+09,9E+09,9E+09,9E+09]];
    CONST robtarget Target_580:=[[51.360714803,170.487010771,1.910762621],[0.000067748,0.768582902,0.639750195,0.000081879],[-2,-1,1,0],[9E+09,9E+09,9E+09,9E+09,9E+09,9E+09]];
    CONST robtarget Target_590:=[[47.145662777,175.674817207,1.909869977],[0.000067748,0.768582902,0.639750195,0.000081879],[-2,-1,1,0],[9E+09,9E+09,9E+09,9E+09,9E+09,9E+09]];
    CONST robtarget Target_600:=[[43.342201184,176.863799653,1.909062315],[0.000067748,0.768582902,0.639750195,0.000081879],[-2,-1,1,0],[9E+09,9E+09,9E+09,9E+09,9E+09,9E+09]];
    CONST robtarget Target_610:=[[173.563096919,169.841154262,1.936735638],[0.000067748,0.768582902,0.639750195,0.000081879],[-2,-1,1,0],[9E+09,9E+09,9E+09,9E+09,9E+09,9E+09]];
    CONST robtarget Target_620:=[[172.745132508,176.038809802,1.936565656],[0.000067748,0.768582902,0.639750195,0.000081879],[-2,-1,1,0],[9E+09,9E+09,9E+09,9E+09,9E+09,9E+09]];
    CONST robtarget Target_630:=[[169.930074572,181.230673481,1.935970575],[0.000067748,0.768582902,0.639750195,0.000081879],[-2,-1,1,0],[9E+09,9E+09,9E+09,9E+09,9E+09,9E+09]];
    CONST robtarget Target_640:=[[157.520273621,184.594723629,1.933335044],[0.000067748,0.768582902,0.639750195,0.000081879],[-2,-1,1,0],[9E+09,9E+09,9E+09,9E+09,9E+09,9E+09]];
    CONST robtarget Target_650:=[[111.737275559,178.662018201,1.923600422],[0.000067748,0.768582902,0.639750195,0.000081879],[-2,-1,1,0],[9E+09,9E+09,9E+09,9E+09,9E+09,9E+09]];
    CONST robtarget Target_660:=[[101.147173614,175.231313358,1.921347413],[0.000067748,0.768582902,0.639750195,0.000081879],[-2,-1,1,0],[9E+09,9E+09,9E+09,9E+09,9E+09,9E+09]];
    CONST robtarget Target_670:=[[96.155888814,172.216835805,1.920284661],[0.000067748,0.768582902,0.639750195,0.000081879],[-2,-1,1,0],[9E+09,9E+09,9E+09,9E+09,9E+09,9E+09]];
    CONST robtarget Target_680:=[[87.985483342,161.99311479,1.9185417],[0.000067748,0.768582902,0.639750195,0.000081879],[-2,-1,1,0],[9E+09,9E+09,9E+09,9E+09,9E+09,9E+09]];
    CONST robtarget Target_690:=[[83.417381096,150.979830044,1.917563895],[0.000067748,0.768582902,0.639750195,0.000081879],[-2,-1,1,0],[9E+09,9E+09,9E+09,9E+09,9E+09,9E+09]];
    CONST robtarget Target_700:=[[88.550751829,152.004673543,1.918655604],[0.000067748,0.768582902,0.639750195,0.000081879],[-2,-1,1,0],[9E+09,9E+09,9E+09,9E+09,9E+09,9E+09]];
    CONST robtarget Target_710:=[[102.620777672,149.835477263,1.921644753],[0.000067748,0.768582902,0.639750195,0.000081879],[-2,-1,1,0],[9E+09,9E+09,9E+09,9E+09,9E+09,9E+09]];
    CONST robtarget Target_720:=[[114.78768862,161.270785359,1.924237905],[0.000067748,0.768582902,0.639750195,0.000081879],[-2,-1,1,0],[9E+09,9E+09,9E+09,9E+09,9E+09,9E+09]];
    CONST robtarget Target_730:=[[124.940856438,163.504555449,1.926397298],[0.000067748,0.768582902,0.639750195,0.000081879],[-2,-1,1,0],[9E+09,9E+09,9E+09,9E+09,9E+09,9E+09]];
    CONST robtarget Target_740:=[[130.389941183,160.51599799,1.927553603],[0.000067748,0.768582902,0.639750195,0.000081879],[-2,-1,1,0],[9E+09,9E+09,9E+09,9E+09,9E+09,9E+09]];
    CONST robtarget Target_750:=[[137.812514577,152.737476168,1.929126369],[0.000067748,0.768582902,0.639750195,0.000081879],[-2,-1,1,0],[9E+09,9E+09,9E+09,9E+09,9E+09,9E+09]];
    CONST robtarget Target_760:=[[138.044971672,141.538102806,1.92916878],[0.000067748,0.768582902,0.639750195,0.000081879],[-2,-1,1,0],[9E+09,9E+09,9E+09,9E+09,9E+09,9E+09]];
    CONST robtarget Target_770:=[[131.860647211,136.120157695,1.927850952],[0.000067748,0.768582902,0.639750195,0.000081879],[-2,-1,1,0],[9E+09,9E+09,9E+09,9E+09,9E+09,9E+09]];
    CONST robtarget Target_780:=[[125.262993499,135.301034055,1.926448146],[0.000067748,0.768582902,0.639750195,0.000081879],[-2,-1,1,0],[9E+09,9E+09,9E+09,9E+09,9E+09,9E+09]];
    CONST robtarget Target_790:=[[119.252585922,138.883630757,1.925172907],[0.000067748,0.768582902,0.639750195,0.000081879],[-2,-1,1,0],[9E+09,9E+09,9E+09,9E+09,9E+09,9E+09]];
    CONST robtarget Target_800:=[[116.835207873,144.876650288,1.924662851],[0.000067748,0.768582902,0.639750195,0.000081879],[-2,-1,1,0],[9E+09,9E+09,9E+09,9E+09,9E+09,9E+09]];
    CONST robtarget Target_810:=[[119.623024324,149.084747136,1.925258015],[0.000067748,0.768582902,0.639750195,0.000081879],[-2,-1,1,0],[9E+09,9E+09,9E+09,9E+09,9E+09,9E+09]];
    CONST robtarget Target_820:=[[127.832263402,145.908524421,1.927000857],[0.000067748,0.768582902,0.639750195,0.000081879],[-2,-1,1,0],[9E+09,9E+09,9E+09,9E+09,9E+09,9E+09]];
    CONST robtarget Target_830:=[[130.220661148,149.915462897,1.927511001],[0.000067748,0.768582902,0.639750195,0.000081879],[-2,-1,1,0],[9E+09,9E+09,9E+09,9E+09,9E+09,9E+09]];
    CONST robtarget Target_840:=[[127.41024006,153.507333295,1.926915906],[0.000067748,0.768582902,0.639750195,0.000081879],[-2,-1,1,0],[9E+09,9E+09,9E+09,9E+09,9E+09,9E+09]];
    CONST robtarget Target_850:=[[120.807369894,154.488202096,1.925513116],[0.000067748,0.768582902,0.639750195,0.000081879],[-2,-1,1,0],[9E+09,9E+09,9E+09,9E+09,9E+09,9E+09]];
    CONST robtarget Target_860:=[[114.622465828,149.270256145,1.92419529],[0.000067748,0.768582902,0.639750195,0.000081879],[-2,-1,1,0],[9E+09,9E+09,9E+09,9E+09,9E+09,9E+09]];
    CONST robtarget Target_870:=[[114.842751195,142.270865146,1.924237738],[0.000067748,0.768582902,0.639750195,0.000081879],[-2,-1,1,0],[9E+09,9E+09,9E+09,9E+09,9E+09,9E+09]];
    CONST robtarget Target_880:=[[128.685004175,127.710919273,1.927170733],[0.000067748,0.768582902,0.639750195,0.000081879],[-2,-1,1,0],[9E+09,9E+09,9E+09,9E+09,9E+09,9E+09]];
    CONST robtarget Target_890:=[[133.919758585,115.726039421,1.928275863],[0.000067748,0.768582902,0.639750195,0.000081879],[-2,-1,1,0],[9E+09,9E+09,9E+09,9E+09,9E+09,9E+09]];
    CONST robtarget Target_900:=[[134.756849995,102.928411597,1.928445786],[0.000067748,0.768582902,0.639750195,0.000081879],[-2,-1,1,0],[9E+09,9E+09,9E+09,9E+09,9E+09,9E+09]];
    CONST robtarget Target_910:=[[129.988748593,91.914547244,1.927425472],[0.000067748,0.768582902,0.639750195,0.000081879],[-2,-1,1,0],[9E+09,9E+09,9E+09,9E+09,9E+09,9E+09]];
    CONST robtarget Target_920:=[[130.993381219,90.317451993,1.927638003],[0.000067748,0.768582902,0.639750195,0.000081879],[-2,-1,1,0],[9E+09,9E+09,9E+09,9E+09,9E+09,9E+09]];
    CONST robtarget Target_930:=[[153.802558657,87.18354052,1.932484006],[0.000067748,0.768582902,0.639750195,0.000081879],[-2,-1,1,0],[9E+09,9E+09,9E+09,9E+09,9E+09,9E+09]];
    CONST robtarget Target_940:=[[162.183396194,93.807856258,1.934269444],[0.000067748,0.768582902,0.639750195,0.000081879],[-2,-1,1,0],[9E+09,9E+09,9E+09,9E+09,9E+09,9E+09]];
    CONST robtarget Target_950:=[[172.924810386,114.039070158,1.93656511],[0.000067748,0.768582902,0.639750195,0.000081879],[-2,-1,1,0],[9E+09,9E+09,9E+09,9E+09,9E+09,9E+09]];
    CONST robtarget Target_960:=[[176.472630642,132.04942748,1.937330432],[0.000067748,0.768582902,0.639750195,0.000081879],[-2,-1,1,0],[9E+09,9E+09,9E+09,9E+09,9E+09,9E+09]];
    CONST robtarget Target_970:=[[174.836701821,144.44473856,1.936990468],[0.000067748,0.768582902,0.639750195,0.000081879],[-2,-1,1,0],[9E+09,9E+09,9E+09,9E+09,9E+09,9E+09]];
    CONST robtarget Target_980:=[[168.199055292,157.42555697,1.935587784],[0.000067748,0.768582902,0.639750195,0.000081879],[-2,-1,1,0],[9E+09,9E+09,9E+09,9E+09,9E+09,9E+09]];
    CONST robtarget Target_990:=[[157.37533704,165.594223809,1.933292368],[0.000067748,0.768582902,0.639750195,0.000081879],[-2,-1,1,0],[9E+09,9E+09,9E+09,9E+09,9E+09,9E+09]];
    CONST robtarget Target_1000:=[[139.55338716,173.142606957,1.92950913],[0.000067748,0.768582902,0.639750195,0.000081879],[-2,-1,1,0],[9E+09,9E+09,9E+09,9E+09,9E+09,9E+09]];
    CONST robtarget Target_1010:=[[139.14585397,175.741436827,1.929424135],[0.000067748,0.768582902,0.639750195,0.000081879],[-2,-1,1,0],[9E+09,9E+09,9E+09,9E+09,9E+09,9E+09]];
    CONST robtarget Target_1020:=[[145.341770552,177.159398735,1.930741928],[0.000067748,0.768582902,0.639750195,0.000081879],[-2,-1,1,0],[9E+09,9E+09,9E+09,9E+09,9E+09,9E+09]];
    CONST robtarget Target_1030:=[[158.148092178,174.99650276,1.933462487],[0.000067748,0.768582902,0.639750195,0.000081879],[-2,-1,1,0],[9E+09,9E+09,9E+09,9E+09,9E+09,9E+09]];
    CONST robtarget Target_1040:=[[172.375273712,165.637694263,1.936480546],[0.000067748,0.768582902,0.639750195,0.000081879],[-2,-1,1,0],[9E+09,9E+09,9E+09,9E+09,9E+09,9E+09]];
    CONST robtarget Target_1050:=[[178.598431779,157.655695644,1.937798256],[0.000067748,0.768582902,0.639750195,0.000081879],[-2,-1,1,0],[9E+09,9E+09,9E+09,9E+09,9E+09,9E+09]];
    CONST robtarget Target_1060:=[[184.437240897,144.27256049,1.939030901],[0.000067748,0.768582902,0.639750195,0.000081879],[-2,-1,1,0],[9E+09,9E+09,9E+09,9E+09,9E+09,9E+09]];
    CONST robtarget Target_1070:=[[191.867928776,133.694050426,1.940603642],[0.000067748,0.768582902,0.639750195,0.000081879],[-2,-1,1,0],[9E+09,9E+09,9E+09,9E+09,9E+09,9E+09]];
    CONST robtarget Target_1080:=[[197.857470536,137.31142349,1.941878945],[0.000067748,0.768582902,0.639750195,0.000081879],[-2,-1,1,0],[9E+09,9E+09,9E+09,9E+09,9E+09,9E+09]];
    CONST robtarget Target_1090:=[[198.237182635,144.312553307,1.941964025],[0.000067748,0.768582902,0.639750195,0.000081879],[-2,-1,1,0],[9E+09,9E+09,9E+09,9E+09,9E+09,9E+09]];
    CONST robtarget Target_1100:=[[195.423863517,148.904419506,1.941368939],[0.000067748,0.768582902,0.639750195,0.000081879],[-2,-1,1,0],[9E+09,9E+09,9E+09,9E+09,9E+09,9E+09]];
    CONST robtarget Target_1110:=[[186.816364947,151.479485528,1.939541073],[0.000067748,0.768582902,0.639750195,0.000081879],[-2,-1,1,0],[9E+09,9E+09,9E+09,9E+09,9E+09,9E+09]];
    CONST robtarget Target_1120:=[[189.393169728,159.486986812,1.940093761],[0.000067748,0.768582902,0.639750195,0.000081879],[-2,-1,1,0],[9E+09,9E+09,9E+09,9E+09,9E+09,9E+09]];
    CONST robtarget Target_1130:=[[182.970012506,167.468405824,1.938733542],[0.000067748,0.768582902,0.639750195,0.000081879],[-2,-1,1,0],[9E+09,9E+09,9E+09,9E+09,9E+09,9E+09]];
    CONST robtarget Target_1140:=[[173.563096919,169.841154262,1.936735638],[0.000067748,0.768582902,0.639750195,0.000081879],[-2,-1,1,0],[9E+09,9E+09,9E+09,9E+09,9E+09,9E+09]];
    CONST robtarget Target_1150:=[[189.306193753,120.486570978,1.940050908],[0.000067748,0.768582902,0.639750195,0.000081879],[-2,-1,1,0],[9E+09,9E+09,9E+09,9E+09,9E+09,9E+09]];
    CONST robtarget Target_1160:=[[182.955487288,103.468094973,1.938690469],[0.000067748,0.768582902,0.639750195,0.000081879],[-2,-1,1,0],[9E+09,9E+09,9E+09,9E+09,9E+09,9E+09]];
    CONST robtarget Target_1170:=[[174.387981535,92.243218945,1.936862482],[0.000067748,0.768582902,0.639750195,0.000081879],[-2,-1,1,0],[9E+09,9E+09,9E+09,9E+09,9E+09,9E+09]];
    CONST robtarget Target_1180:=[[167.407717694,85.422961289,1.935374605],[0.000067748,0.768582902,0.639750195,0.000081879],[-2,-1,1,0],[9E+09,9E+09,9E+09,9E+09,9E+09,9E+09]];
    CONST robtarget Target_1190:=[[202.800033361,88.12554064,1.942898729],[0.000067748,0.768582902,0.639750195,0.000081879],[-2,-1,1,0],[9E+09,9E+09,9E+09,9E+09,9E+09,9E+09]];
    CONST robtarget Target_1200:=[[206.804653322,86.53713948,1.943748896],[0.000067748,0.768582902,0.639750195,0.000081879],[-2,-1,1,0],[9E+09,9E+09,9E+09,9E+09,9E+09,9E+09]];
    CONST robtarget Target_1210:=[[210.616809006,82.348169632,1.944556531],[0.000067748,0.768582902,0.639750195,0.000081879],[-2,-1,1,0],[9E+09,9E+09,9E+09,9E+09,9E+09,9E+09]];
    CONST robtarget Target_1220:=[[223.624289,79.785854943,1.947319596],[0.000067748,0.768582902,0.639750195,0.000081879],[-2,-1,1,0],[9E+09,9E+09,9E+09,9E+09,9E+09,9E+09]];
    CONST robtarget Target_1230:=[[229.41730924,82.20265344,1.948552379],[0.000067748,0.768582902,0.639750195,0.000081879],[-2,-1,1,0],[9E+09,9E+09,9E+09,9E+09,9E+09,9E+09]];
    CONST robtarget Target_1240:=[[235.588302762,92.220579234,1.949870247],[0.000067748,0.768582902,0.639750195,0.000081879],[-2,-1,1,0],[9E+09,9E+09,9E+09,9E+09,9E+09,9E+09]];
    CONST robtarget Target_1250:=[[236.770329908,98.424030835,1.950125356],[0.000067748,0.768582902,0.639750195,0.000081879],[-2,-1,1,0],[9E+09,9E+09,9E+09,9E+09,9E+09,9E+09]];
    CONST robtarget Target_1260:=[[234.360486737,101.817061285,1.949615278],[0.000067748,0.768582902,0.639750195,0.000081879],[-2,-1,1,0],[9E+09,9E+09,9E+09,9E+09,9E+09,9E+09]];
    CONST robtarget Target_1270:=[[226.368634997,98.993888801,1.947914891],[0.000067748,0.768582902,0.639750195,0.000081879],[-2,-1,1,0],[9E+09,9E+09,9E+09,9E+09,9E+09,9E+09]];
    CONST robtarget Target_1280:=[[213.991871591,90.957986821,1.94527926],[0.000067748,0.768582902,0.639750195,0.000081879],[-2,-1,1,0],[9E+09,9E+09,9E+09,9E+09,9E+09,9E+09]];
    CONST robtarget Target_1290:=[[208.194214502,90.141181605,1.944046491],[0.000067748,0.768582902,0.639750195,0.000081879],[-2,-1,1,0],[9E+09,9E+09,9E+09,9E+09,9E+09,9E+09]];
    CONST robtarget Target_1300:=[[207.584943338,93.339429349,1.943918992],[0.000067748,0.768582902,0.639750195,0.000081879],[-2,-1,1,0],[9E+09,9E+09,9E+09,9E+09,9E+09,9E+09]];
    CONST robtarget Target_1310:=[[214.16926611,98.758533672,1.945321838],[0.000067748,0.768582902,0.639750195,0.000081879],[-2,-1,1,0],[9E+09,9E+09,9E+09,9E+09,9E+09,9E+09]];
    CONST robtarget Target_1320:=[[231.151806156,104.80777499,1.948935159],[0.000067748,0.768582902,0.639750195,0.000081879],[-2,-1,1,0],[9E+09,9E+09,9E+09,9E+09,9E+09,9E+09]];
    CONST robtarget Target_1330:=[[243.310023013,119.243070489,1.951528338],[0.000067748,0.768582902,0.639750195,0.000081879],[-2,-1,1,0],[9E+09,9E+09,9E+09,9E+09,9E+09,9E+09]];
    CONST robtarget Target_1340:=[[245.905954794,120.650599488,1.952080968],[0.000067748,0.768582902,0.639750195,0.000081879],[-2,-1,1,0],[9E+09,9E+09,9E+09,9E+09,9E+09,9E+09]];
    CONST robtarget Target_1350:=[[248.521593181,115.258157043,1.952633538],[0.000067748,0.768582902,0.639750195,0.000081879],[-2,-1,1,0],[9E+09,9E+09,9E+09,9E+09,9E+09,9E+09]];
    CONST robtarget Target_1360:=[[249.955784027,103.462263837,1.952930997],[0.000067748,0.768582902,0.639750195,0.000081879],[-2,-1,1,0],[9E+09,9E+09,9E+09,9E+09,9E+09,9E+09]];
    CONST robtarget Target_1370:=[[260.38356121,93.892443665,1.955141383],[0.000067748,0.768582902,0.639750195,0.000081879],[-2,-1,1,0],[9E+09,9E+09,9E+09,9E+09,9E+09,9E+09]];
    CONST robtarget Target_1380:=[[259.596315921,89.490143717,1.954971308],[0.000067748,0.768582902,0.639750195,0.000081879],[-2,-1,1,0],[9E+09,9E+09,9E+09,9E+09,9E+09,9E+09]];
    CONST robtarget Target_1390:=[[253.220578591,88.536874484,1.953615586],[0.000067748,0.768582902,0.639750195,0.000081879],[-2,-1,1,0],[9E+09,9E+09,9E+09,9E+09,9E+09,9E+09]];
    CONST robtarget Target_1400:=[[250.598092736,88.864063965,1.953058396],[0.000067748,0.768582902,0.639750195,0.000081879],[-2,-1,1,0],[9E+09,9E+09,9E+09,9E+09,9E+09,9E+09]];
    CONST robtarget Target_1410:=[[249.999834088,88.262327666,1.952930863],[0.000067748,0.768582902,0.639750195,0.000081879],[-2,-1,1,0],[9E+09,9E+09,9E+09,9E+09,9E+09,9E+09]];
    CONST robtarget Target_1420:=[[254.210828871,84.474515351,1.95382352],[0.000067748,0.768582902,0.639750195,0.000081879],[-2,-1,1,0],[9E+09,9E+09,9E+09,9E+09,9E+09,9E+09]];
    CONST robtarget Target_1430:=[[263.611368791,84.301757675,1.955821443],[0.000067748,0.768582902,0.639750195,0.000081879],[-2,-1,1,0],[9E+09,9E+09,9E+09,9E+09,9E+09,9E+09]];
    CONST robtarget Target_1440:=[[268.397437981,89.115648063,1.956841702],[0.000067748,0.768582902,0.639750195,0.000081879],[-2,-1,1,0],[9E+09,9E+09,9E+09,9E+09,9E+09,9E+09]];
    CONST robtarget Target_1450:=[[275.271633913,132.535752025,1.958329901],[0.000067748,0.768582902,0.639750195,0.000081879],[-2,-1,1,0],[9E+09,9E+09,9E+09,9E+09,9E+09,9E+09]];
    CONST robtarget Target_1460:=[[277.707014817,189.343048383,1.958883019],[0.000067748,0.768582902,0.639750195,0.000081879],[-2,-1,1,0],[9E+09,9E+09,9E+09,9E+09,9E+09,9E+09]];
    CONST robtarget Target_1470:=[[279.253104699,207.947607125,1.959223255],[0.000067748,0.768582902,0.639750195,0.000081879],[-1,-1,1,0],[9E+09,9E+09,9E+09,9E+09,9E+09,9E+09]];
    CONST robtarget Target_1480:=[[277.810219761,222.743487733,1.958925822],[0.000067748,0.768582902,0.639750195,0.000081879],[-1,-1,1,0],[9E+09,9E+09,9E+09,9E+09,9E+09,9E+09]];
    CONST robtarget Target_1490:=[[274.366763661,237.73357144,1.9582033],[0.000067748,0.768582902,0.639750195,0.000081879],[-1,-1,1,0],[9E+09,9E+09,9E+09,9E+09,9E+09,9E+09]];
    CONST robtarget Target_1500:=[[275.508218383,257.936964251,1.958458532],[0.000067748,0.768582902,0.639750195,0.000081879],[-1,-1,1,0],[9E+09,9E+09,9E+09,9E+09,9E+09,9E+09]];
    CONST robtarget Target_1510:=[[274.698948064,261.134632389,1.958288524],[0.000067748,0.768582902,0.639750195,0.000081879],[-1,-1,1,0],[9E+09,9E+09,9E+09,9E+09,9E+09,9E+09]];
    CONST robtarget Target_1520:=[[273.634036408,283.531640294,1.958076176],[0.000067748,0.768582902,0.639750195,0.000081879],[-1,-1,1,0],[9E+09,9E+09,9E+09,9E+09,9E+09,9E+09]];
    CONST robtarget Target_1530:=[[271.390575242,298.525201639,1.957608708],[0.000067748,0.768582902,0.639750195,0.000081879],[-1,-1,1,0],[9E+09,9E+09,9E+09,9E+09,9E+09,9E+09]];
    CONST robtarget Target_1540:=[[271.766809705,306.726326416,1.957693799],[0.000067748,0.768582902,0.639750195,0.000081879],[-1,-1,1,0],[9E+09,9E+09,9E+09,9E+09,9E+09,9E+09]];
    CONST robtarget Target_1550:=[[269.956964001,310.121095684,1.957311247],[0.000067748,0.768582902,0.639750195,0.000081879],[-1,-1,1,0],[9E+09,9E+09,9E+09,9E+09,9E+09,9E+09]];
    CONST robtarget Target_1560:=[[266.555239537,310.711239862,1.956588599],[0.000067748,0.768582902,0.639750195,0.000081879],[-1,-1,1,0],[9E+09,9E+09,9E+09,9E+09,9E+09,9E+09]];
    CONST robtarget Target_1570:=[[265.168576387,306.107201937,1.956290995],[0.000067748,0.768582902,0.639750195,0.000081879],[-1,-1,1,0],[9E+09,9E+09,9E+09,9E+09,9E+09,9E+09]];
    CONST robtarget Target_1580:=[[259.375556147,303.69040344,1.955058212],[0.000067748,0.768582902,0.639750195,0.000081879],[-1,-1,1,0],[9E+09,9E+09,9E+09,9E+09,9E+09,9E+09]];
    CONST robtarget Target_1590:=[[244.176779532,303.24635506,1.951827521],[0.000067748,0.768582902,0.639750195,0.000081879],[-1,-1,1,0],[9E+09,9E+09,9E+09,9E+09,9E+09,9E+09]];
    CONST robtarget Target_1600:=[[235.794203177,297.222036802,1.950042088],[0.000067748,0.768582902,0.639750195,0.000081879],[-1,-1,1,0],[9E+09,9E+09,9E+09,9E+09,9E+09,9E+09]];
    CONST robtarget Target_1610:=[[232.416242562,289.612215414,1.949319367],[0.000067748,0.768582902,0.639750195,0.000081879],[-1,-1,1,0],[9E+09,9E+09,9E+09,9E+09,9E+09,9E+09]];
    CONST robtarget Target_1620:=[[234.64463397,279.818632234,1.949786881],[0.000067748,0.768582902,0.639750195,0.000081879],[-1,-1,1,0],[9E+09,9E+09,9E+09,9E+09,9E+09,9E+09]];
    CONST robtarget Target_1630:=[[235.829559147,285.022088034,1.950041981],[0.000067748,0.768582902,0.639750195,0.000081879],[-1,-1,1,0],[9E+09,9E+09,9E+09,9E+09,9E+09,9E+09]];
    CONST robtarget Target_1640:=[[244.81329218,290.648146789,1.951954937],[0.000067748,0.768582902,0.639750195,0.000081879],[-1,-1,1,0],[9E+09,9E+09,9E+09,9E+09,9E+09,9E+09]];
    CONST robtarget Target_1650:=[[257.017297915,289.283508637,1.954547976],[0.000067748,0.768582902,0.639750195,0.000081879],[-1,-1,1,0],[9E+09,9E+09,9E+09,9E+09,9E+09,9E+09]];
    CONST robtarget Target_1660:=[[265.032913504,283.906715555,1.956248291],[0.000067748,0.768582902,0.639750195,0.000081879],[-1,-1,1,0],[9E+09,9E+09,9E+09,9E+09,9E+09,9E+09]];
    CONST robtarget Target_1670:=[[266.660148233,274.511391877,1.95658828],[0.000067748,0.768582902,0.639750195,0.000081879],[-1,-1,1,0],[9E+09,9E+09,9E+09,9E+09,9E+09,9E+09]];
    CONST robtarget Target_1680:=[[268.873469885,269.91778686,1.957055839],[0.000067748,0.768582902,0.639750195,0.000081879],[-1,-1,1,0],[9E+09,9E+09,9E+09,9E+09,9E+09,9E+09]];
    CONST robtarget Target_1690:=[[267.698977617,261.114346178,1.956800707],[0.000067748,0.768582902,0.639750195,0.000081879],[-1,-1,1,0],[9E+09,9E+09,9E+09,9E+09,9E+09,9E+09]];
    CONST robtarget Target_1700:=[[268.34070672,246.716145466,1.956928108],[0.000067748,0.768582902,0.639750195,0.000081879],[-1,-1,1,0],[9E+09,9E+09,9E+09,9E+09,9E+09,9E+09]];
    CONST robtarget Target_1710:=[[256.556985508,241.081972225,1.954420025],[0.000067748,0.768582902,0.639750195,0.000081879],[-1,-1,1,0],[9E+09,9E+09,9E+09,9E+09,9E+09,9E+09]];
    CONST robtarget Target_1720:=[[251.777871591,233.868091915,1.953399744],[0.000067748,0.768582902,0.639750195,0.000081879],[-1,-1,1,0],[9E+09,9E+09,9E+09,9E+09,9E+09,9E+09]];
    CONST robtarget Target_1730:=[[250.798741631,226.66522412,1.953187136],[0.000067748,0.768582902,0.639750195,0.000081879],[-1,-1,1,0],[9E+09,9E+09,9E+09,9E+09,9E+09,9E+09]];
    CONST robtarget Target_1740:=[[252.399314482,226.469861808,1.953527206],[0.000067748,0.768582902,0.639750195,0.000081879],[-1,-1,1,0],[9E+09,9E+09,9E+09,9E+09,9E+09,9E+09]];
    CONST robtarget Target_1750:=[[259.190012076,229.689554976,1.954972542],[0.000067748,0.768582902,0.639750195,0.000081879],[-1,-1,1,0],[9E+09,9E+09,9E+09,9E+09,9E+09,9E+09]];
    CONST robtarget Target_1760:=[[265.998097852,226.909273339,1.956417825],[0.000067748,0.768582902,0.639750195,0.000081879],[-1,-1,1,0],[9E+09,9E+09,9E+09,9E+09,9E+09,9E+09]];
    CONST robtarget Target_1770:=[[268.812576182,221.91740882,1.957012908],[0.000067748,0.768582902,0.639750195,0.000081879],[-1,-1,1,0],[9E+09,9E+09,9E+09,9E+09,9E+09,9E+09]];
    CONST robtarget Target_1780:=[[269.275751554,200.118659577,1.957097734],[0.000067748,0.768582902,0.639750195,0.000081879],[-1,-1,1,0],[9E+09,9E+09,9E+09,9E+09,9E+09,9E+09]];
    CONST robtarget Target_1790:=[[273.124422419,183.32974264,1.957905258],[0.000067748,0.768582902,0.639750195,0.000081879],[-2,-1,1,0],[9E+09,9E+09,9E+09,9E+09,9E+09,9E+09]];
    CONST robtarget Target_1800:=[[269.991090626,160.320565527,1.957224911],[0.000067748,0.768582902,0.639750195,0.000081879],[-2,-1,1,0],[9E+09,9E+09,9E+09,9E+09,9E+09,9E+09]];
    CONST robtarget Target_1810:=[[271.839769935,143.52585253,1.957607344],[0.000067748,0.768582902,0.639750195,0.000081879],[-2,-1,1,0],[9E+09,9E+09,9E+09,9E+09,9E+09,9E+09]];
    CONST robtarget Target_1820:=[[269.076876544,130.717791796,1.957012105],[0.000067748,0.768582902,0.639750195,0.000081879],[-2,-1,1,0],[9E+09,9E+09,9E+09,9E+09,9E+09,9E+09]];
    CONST robtarget Target_1830:=[[267.741798333,108.313828618,1.956714344],[0.000067748,0.768582902,0.639750195,0.000081879],[-2,-1,1,0],[9E+09,9E+09,9E+09,9E+09,9E+09,9E+09]];
    CONST robtarget Target_1840:=[[262.959786385,102.099944109,1.955694073],[0.000067748,0.768582902,0.639750195,0.000081879],[-2,-1,1,0],[9E+09,9E+09,9E+09,9E+09,9E+09,9E+09]];
    CONST robtarget Target_1850:=[[257.159231266,102.283134694,1.954461312],[0.000067748,0.768582902,0.639750195,0.000081879],[-2,-1,1,0],[9E+09,9E+09,9E+09,9E+09,9E+09,9E+09]];
    CONST robtarget Target_1860:=[[252.746498509,106.670364884,1.953526152],[0.000067748,0.768582902,0.639750195,0.000081879],[-2,-1,1,0],[9E+09,9E+09,9E+09,9E+09,9E+09,9E+09]];
    CONST robtarget Target_1870:=[[251.517523273,116.666845255,1.953271186],[0.000067748,0.768582902,0.639750195,0.000081879],[-2,-1,1,0],[9E+09,9E+09,9E+09,9E+09,9E+09,9E+09]];
    CONST robtarget Target_1880:=[[248.087977718,126.856949119,1.952548622],[0.000067748,0.768582902,0.639750195,0.000081879],[-2,-1,1,0],[9E+09,9E+09,9E+09,9E+09,9E+09,9E+09]];
    CONST robtarget Target_1890:=[[255.036942832,144.477161423,1.954036593],[0.000067748,0.768582902,0.639750195,0.000081879],[-2,-1,1,0],[9E+09,9E+09,9E+09,9E+09,9E+09,9E+09]];
    CONST robtarget Target_1900:=[[256.191728494,160.08057355,1.954291785],[0.000067748,0.768582902,0.639750195,0.000081879],[-2,-1,1,0],[9E+09,9E+09,9E+09,9E+09,9E+09,9E+09]];
    CONST robtarget Target_1910:=[[252.908858338,188.671179754,1.953611892],[0.000067748,0.768582902,0.639750195,0.000081879],[-2,-1,1,0],[9E+09,9E+09,9E+09,9E+09,9E+09,9E+09]];
    CONST robtarget Target_1920:=[[247.85555569,207.056612335,1.952549328],[0.000067748,0.768582902,0.639750195,0.000081879],[-1,-1,1,0],[9E+09,9E+09,9E+09,9E+09,9E+09,9E+09]];
    CONST robtarget Target_1930:=[[241.010954733,222.436841061,1.951104156],[0.000067748,0.768582902,0.639750195,0.000081879],[-1,-1,1,0],[9E+09,9E+09,9E+09,9E+09,9E+09,9E+09]];
    CONST robtarget Target_1940:=[[230.579120307,233.406655354,1.948893782],[0.000067748,0.768582902,0.639750195,0.000081879],[-1,-1,1,0],[9E+09,9E+09,9E+09,9E+09,9E+09,9E+09]];
    CONST robtarget Target_1950:=[[226.177979671,233.793902342,1.947958587],[0.000067748,0.768582902,0.639750195,0.000081879],[-1,-1,1,0],[9E+09,9E+09,9E+09,9E+09,9E+09,9E+09]];
    CONST robtarget Target_1960:=[[225.368129746,237.19156964,1.947788581],[0.000067748,0.768582902,0.639750195,0.000081879],[-1,-1,1,0],[9E+09,9E+09,9E+09,9E+09,9E+09,9E+09]];
    CONST robtarget Target_1970:=[[228.561740569,239.400834098,1.948468745],[0.000067748,0.768582902,0.639750195,0.000081879],[-1,-1,1,0],[9E+09,9E+09,9E+09,9E+09,9E+09,9E+09]];
    CONST robtarget Target_1980:=[[233.167517209,237.414173436,1.949446435],[0.000067748,0.768582902,0.639750195,0.000081879],[-1,-1,1,0],[9E+09,9E+09,9E+09,9E+09,9E+09,9E+09]];
    CONST robtarget Target_1990:=[[238.548947017,243.829795923,1.950594236],[0.000067748,0.768582902,0.639750195,0.000081879],[-1,-1,1,0],[9E+09,9E+09,9E+09,9E+09,9E+09,9E+09]];
    CONST robtarget Target_2000:=[[237.718231274,254.427432987,1.950424293],[0.000067748,0.768582902,0.639750195,0.000081879],[-1,-1,1,0],[9E+09,9E+09,9E+09,9E+09,9E+09,9E+09]];
    CONST robtarget Target_2010:=[[231.092176866,263.408268193,1.949021574],[0.000067748,0.768582902,0.639750195,0.000081879],[-1,-1,1,0],[9E+09,9E+09,9E+09,9E+09,9E+09,9E+09]];
    CONST robtarget Target_2020:=[[224.881770132,266.990285289,1.947703825],[0.000067748,0.768582902,0.639750195,0.000081879],[-1,-1,1,0],[9E+09,9E+09,9E+09,9E+09,9E+09,9E+09]];
    CONST robtarget Target_2030:=[[217.484119798,266.168843225,1.946130983],[0.000067748,0.768582902,0.639750195,0.000081879],[-1,-1,1,0],[9E+09,9E+09,9E+09,9E+09,9E+09,9E+09]];
    CONST robtarget Target_2040:=[[214.29572543,262.159586325,1.945450803],[0.000067748,0.768582902,0.639750195,0.000081879],[-1,-1,1,0],[9E+09,9E+09,9E+09,9E+09,9E+09,9E+09]];
    CONST robtarget Target_2050:=[[219.736854661,247.975295318,1.946598422],[0.000067748,0.768582902,0.639750195,0.000081879],[-1,-1,1,0],[9E+09,9E+09,9E+09,9E+09,9E+09,9E+09]];
    CONST robtarget Target_2060:=[[219.353664926,242.174160462,1.946513353],[0.000067748,0.768582902,0.639750195,0.000081879],[-1,-1,1,0],[9E+09,9E+09,9E+09,9E+09,9E+09,9E+09]];
    CONST robtarget Target_2070:=[[216.354836804,241.765468051,1.945875714],[0.000067748,0.768582902,0.639750195,0.000081879],[-1,-1,1,0],[9E+09,9E+09,9E+09,9E+09,9E+09,9E+09]];
    CONST robtarget Target_2080:=[[197.720718573,253.511515138,1.941922477],[0.000067748,0.768582902,0.639750195,0.000081879],[-1,-1,1,0],[9E+09,9E+09,9E+09,9E+09,9E+09,9E+09]];
    CONST robtarget Target_2090:=[[183.102232819,259.869177021,1.938819373],[0.000067748,0.768582902,0.639750195,0.000081879],[-1,-1,1,0],[9E+09,9E+09,9E+09,9E+09,9E+09,9E+09]];
    CONST robtarget Target_2100:=[[171.892426801,263.236704805,1.936438897],[0.000067748,0.768582902,0.639750195,0.000081879],[-1,-1,1,0],[9E+09,9E+09,9E+09,9E+09,9E+09,9E+09]];
    CONST robtarget Target_2110:=[[152.682074952,266.781047507,1.93235806],[0.000067748,0.768582902,0.639750195,0.000081879],[-1,-1,1,0],[9E+09,9E+09,9E+09,9E+09,9E+09,9E+09]];
    CONST robtarget Target_2120:=[[153.85946525,274.584492389,1.932613183],[0.000067748,0.768582902,0.639750195,0.000081879],[-1,-1,1,0],[9E+09,9E+09,9E+09,9E+09,9E+09,9E+09]];
    CONST robtarget Target_2130:=[[153.017157385,289.182112655,1.932443275],[0.000067748,0.768582902,0.639750195,0.000081879],[-1,-1,1,0],[9E+09,9E+09,9E+09,9E+09,9E+09,9E+09]];
    CONST robtarget Target_2140:=[[144.785893278,299.958303455,1.9307005],[0.000067748,0.768582902,0.639750195,0.000081879],[-1,-1,1,0],[9E+09,9E+09,9E+09,9E+09,9E+09,9E+09]];
    CONST robtarget Target_2150:=[[133.560437897,308.725808563,1.928320071],[0.000067748,0.768582902,0.639750195,0.000081879],[-1,-1,1,0],[9E+09,9E+09,9E+09,9E+09,9E+09,9E+09]];
    CONST robtarget Target_2160:=[[114.550664809,312.070731711,1.924281741],[0.000067748,0.768582902,0.639750195,0.000081879],[-1,-1,1,0],[9E+09,9E+09,9E+09,9E+09,9E+09,9E+09]];
    CONST robtarget Target_2170:=[[130.976098237,303.318296361,1.927767405],[0.000067748,0.768582902,0.639750195,0.000081879],[-1,-1,1,0],[9E+09,9E+09,9E+09,9E+09,9E+09,9E+09]];
    CONST robtarget Target_2180:=[[137.995195684,296.738610287,1.929255164],[0.000067748,0.768582902,0.639750195,0.000081879],[-1,-1,1,0],[9E+09,9E+09,9E+09,9E+09,9E+09,9E+09]];
    CONST robtarget Target_2190:=[[143.816616621,289.355449937,1.930487861],[0.000067748,0.768582902,0.639750195,0.000081879],[-1,-1,1,0],[9E+09,9E+09,9E+09,9E+09,9E+09,9E+09]];
    CONST robtarget Target_2200:=[[146.444426735,279.763025129,1.931040394],[0.000067748,0.768582902,0.639750195,0.000081879],[-1,-1,1,0],[9E+09,9E+09,9E+09,9E+09,9E+09,9E+09]];
    CONST robtarget Target_2210:=[[145.667034748,271.96073946,1.930870289],[0.000067748,0.768582902,0.639750195,0.000081879],[-1,-1,1,0],[9E+09,9E+09,9E+09,9E+09,9E+09,9E+09]];
    CONST robtarget Target_2220:=[[141.473428147,269.748576971,1.92997758],[0.000067748,0.768582902,0.639750195,0.000081879],[-1,-1,1,0],[9E+09,9E+09,9E+09,9E+09,9E+09,9E+09]];
    CONST robtarget Target_2230:=[[137.035772329,282.735771047,1.929042495],[0.000067748,0.768582902,0.639750195,0.000081879],[-1,-1,1,0],[9E+09,9E+09,9E+09,9E+09,9E+09,9E+09]];
    CONST robtarget Target_2240:=[[128.009148448,291.909650142,1.927129669],[0.000067748,0.768582902,0.639750195,0.000081879],[-1,-1,1,0],[9E+09,9E+09,9E+09,9E+09,9E+09,9E+09]];
    CONST robtarget Target_2250:=[[117.791803329,297.880065038,1.924961761],[0.000067748,0.768582902,0.639750195,0.000081879],[-1,-1,1,0],[9E+09,9E+09,9E+09,9E+09,9E+09,9E+09]];
    CONST robtarget Target_2260:=[[111.185455527,300.0609288,1.923558982],[0.000067748,0.768582902,0.639750195,0.000081879],[-1,-1,1,0],[9E+09,9E+09,9E+09,9E+09,9E+09,9E+09]];
    CONST robtarget Target_2270:=[[108.986624028,299.654554813,1.923091379],[0.000067748,0.768582902,0.639750195,0.000081879],[-1,-1,1,0],[9E+09,9E+09,9E+09,9E+09,9E+09,9E+09]];
    CONST robtarget Target_2280:=[[125.424229182,286.7021371,1.926577006],[0.000067748,0.768582902,0.639750195,0.000081879],[-1,-1,1,0],[9E+09,9E+09,9E+09,9E+09,9E+09,9E+09]];
    CONST robtarget Target_2290:=[[133.061291883,273.92421588,1.928192237],[0.000067748,0.768582902,0.639750195,0.000081879],[-1,-1,1,0],[9E+09,9E+09,9E+09,9E+09,9E+09,9E+09]];
    CONST robtarget Target_2300:=[[132.280422261,267.321925172,1.928022143],[0.000067748,0.768582902,0.639750195,0.000081879],[-1,-1,1,0],[9E+09,9E+09,9E+09,9E+09,9E+09,9E+09]];
    CONST robtarget Target_2310:=[[126.887979938,264.706286727,1.926874376],[0.000067748,0.768582902,0.639750195,0.000081879],[-1,-1,1,0],[9E+09,9E+09,9E+09,9E+09,9E+09,9E+09]];
    CONST robtarget Target_2320:=[[107.285164656,265.649481135,1.922708498],[0.000067748,0.768582902,0.639750195,0.000081879],[-1,-1,1,0],[9E+09,9E+09,9E+09,9E+09,9E+09,9E+09]];
    CONST robtarget Target_2330:=[[94.874204493,269.413529603,1.920072971],[0.000067748,0.768582902,0.639750195,0.000081879],[-1,-1,1,0],[9E+09,9E+09,9E+09,9E+09,9E+09,9E+09]];
    CONST robtarget Target_2340:=[[103.689816704,264.039054945,1.921943321],[0.000067748,0.768582902,0.639750195,0.000081879],[-1,-1,1,0],[9E+09,9E+09,9E+09,9E+09,9E+09,9E+09]];
    CONST robtarget Target_2350:=[[122.903646189,259.294717282,1.926024147],[0.000067748,0.768582902,0.639750195,0.000081879],[-1,-1,1,0],[9E+09,9E+09,9E+09,9E+09,9E+09,9E+09]];
    CONST robtarget Target_2360:=[[130.905930838,258.517904883,1.927724502],[0.000067748,0.768582902,0.639750195,0.000081879],[-1,-1,1,0],[9E+09,9E+09,9E+09,9E+09,9E+09,9E+09]];
    CONST robtarget Target_2370:=[[135.109970348,257.130082489,1.92861718],[0.000067748,0.768582902,0.639750195,0.000081879],[-1,-1,1,0],[9E+09,9E+09,9E+09,9E+09,9E+09,9E+09]];
    CONST robtarget Target_2380:=[[130.917522959,254.51792168,1.927724467],[0.000067748,0.768582902,0.639750195,0.000081879],[-1,-1,1,0],[9E+09,9E+09,9E+09,9E+09,9E+09,9E+09]];
    CONST robtarget Target_2390:=[[115.123965331,252.272142041,1.924366233],[0.000067748,0.768582902,0.639750195,0.000081879],[-1,-1,1,0],[9E+09,9E+09,9E+09,9E+09,9E+09,9E+09]];
    CONST robtarget Target_2400:=[[99.917074231,254.628081904,1.921135567],[0.000067748,0.768582902,0.639750195,0.000081879],[-1,-1,1,0],[9E+09,9E+09,9E+09,9E+09,9E+09,9E+09]];
    CONST robtarget Target_2410:=[[88.098576656,260.993858272,1.91862759],[0.000067748,0.768582902,0.639750195,0.000081879],[-1,-1,1,0],[9E+09,9E+09,9E+09,9E+09,9E+09,9E+09]];
    CONST robtarget Target_2420:=[[76.867325214,271.761354981,1.916247178],[0.000067748,0.768582902,0.639750195,0.000081879],[-1,-1,1,0],[9E+09,9E+09,9E+09,9E+09,9E+09,9E+09]];
    CONST robtarget Target_2430:=[[85.301486507,259.985747987,1.918032454],[0.000067748,0.768582902,0.639750195,0.000081879],[-1,-1,1,0],[9E+09,9E+09,9E+09,9E+09,9E+09,9E+09]];
    CONST robtarget Target_2440:=[[99.929245959,250.428099541,1.92113553],[0.000067748,0.768582902,0.639750195,0.000081879],[-1,-1,1,0],[9E+09,9E+09,9E+09,9E+09,9E+09,9E+09]];
    CONST robtarget Target_2450:=[[117.142504281,245.877964977,1.924791267],[0.000067748,0.768582902,0.639750195,0.000081879],[-1,-1,1,0],[9E+09,9E+09,9E+09,9E+09,9E+09,9E+09]];
    CONST robtarget Target_2460:=[[137.134884965,248.535914663,1.929042194],[0.000067748,0.768582902,0.639750195,0.000081879],[-1,-1,1,0],[9E+09,9E+09,9E+09,9E+09,9E+09,9E+09]];
    CONST robtarget Target_2470:=[[142.538919409,247.151569906,1.930189926],[0.000067748,0.768582902,0.639750195,0.000081879],[-1,-1,1,0],[9E+09,9E+09,9E+09,9E+09,9E+09,9E+09]];
    CONST robtarget Target_2480:=[[154.16321389,238.78522233,1.932655377],[0.000067748,0.768582902,0.639750195,0.000081879],[-1,-1,1,0],[9E+09,9E+09,9E+09,9E+09,9E+09,9E+09]];
    CONST robtarget Target_2490:=[[167.015904001,220.622393544,1.935375795],[0.000067748,0.768582902,0.639750195,0.000081879],[-1,-1,1,0],[9E+09,9E+09,9E+09,9E+09,9E+09,9E+09]];
    CONST robtarget Target_2500:=[[171.655297792,207.035781593,1.936353384],[0.000067748,0.768582902,0.639750195,0.000081879],[-1,-1,1,0],[9E+09,9E+09,9E+09,9E+09,9E+09,9E+09]];
    CONST robtarget Target_2510:=[[170.687759953,195.832930595,1.93614074],[0.000067748,0.768582902,0.639750195,0.000081879],[-2,-1,1,0],[9E+09,9E+09,9E+09,9E+09,9E+09,9E+09]];
    CONST robtarget Target_2520:=[[167.097048848,192.622511124,1.935375549],[0.000067748,0.768582902,0.639750195,0.000081879],[-2,-1,1,0],[9E+09,9E+09,9E+09,9E+09,9E+09,9E+09]];
    CONST robtarget Target_2530:=[[173.510206341,194.675348311,1.936739912],[0.000067748,0.768582902,0.639750195,0.000081879],[-2,-1,1,0],[9E+09,9E+09,9E+09,9E+09,9E+09,9E+09]];
    CONST robtarget Target_2540:=[[174.384350172,201.37501262,1.936929892],[0.000067748,0.768582902,0.639750195,0.000081879],[-1,-1,1,0],[9E+09,9E+09,9E+09,9E+09,9E+09,9E+09]];
    CONST robtarget Target_2550:=[[171.816644391,213.826681539,1.93639192],[0.000067748,0.768582902,0.639750195,0.000081879],[-1,-1,1,0],[9E+09,9E+09,9E+09,9E+09,9E+09,9E+09]];
    CONST robtarget Target_2560:=[[162.405194759,234.262206283,1.934404337],[0.000067748,0.768582902,0.639750195,0.000081879],[-1,-1,1,0],[9E+09,9E+09,9E+09,9E+09,9E+09,9E+09]];
    CONST robtarget Target_2570:=[[147.315135296,255.365446016,1.931210215],[0.000067748,0.768582902,0.639750195,0.000081879],[-1,-1,1,0],[9E+09,9E+09,9E+09,9E+09,9E+09,9E+09]];
    CONST robtarget Target_2580:=[[152.902939926,259.581657348,1.932400506],[0.000067748,0.768582902,0.639750195,0.000081879],[-1,-1,1,0],[9E+09,9E+09,9E+09,9E+09,9E+09,9E+09]];
    CONST robtarget Target_2590:=[[167.50229868,259.82396775,1.935503668],[0.000067748,0.768582902,0.639750195,0.000081879],[-1,-1,1,0],[9E+09,9E+09,9E+09,9E+09,9E+09,9E+09]];
    CONST robtarget Target_2600:=[[169.509825115,257.229774728,1.935928735],[0.000067748,0.768582902,0.639750195,0.000081879],[-1,-1,1,0],[9E+09,9E+09,9E+09,9E+09,9E+09,9E+09]];
    CONST robtarget Target_2610:=[[155.931327957,249.790392592,1.933038055],[0.000067748,0.768582902,0.639750195,0.000081879],[-1,-1,1,0],[9E+09,9E+09,9E+09,9E+09,9E+09,9E+09]];
    CONST robtarget Target_2620:=[[154.738867902,247.186925874,1.932782978],[0.000067748,0.768582902,0.639750195,0.000081879],[-1,-1,1,0],[9E+09,9E+09,9E+09,9E+09,9E+09,9E+09]];
    CONST robtarget Target_2630:=[[159.742904035,245.801421904,1.933845692],[0.000067748,0.768582902,0.639750195,0.000081879],[-1,-1,1,0],[9E+09,9E+09,9E+09,9E+09,9E+09,9E+09]];
    CONST robtarget Target_2640:=[[169.527792903,251.029800764,1.935928681],[0.000067748,0.768582902,0.639750195,0.000081879],[-1,-1,1,0],[9E+09,9E+09,9E+09,9E+09,9E+09,9E+09]];
    CONST robtarget Target_2650:=[[175.927186277,251.248347317,1.937288972],[0.000067748,0.768582902,0.639750195,0.000081879],[-1,-1,1,0],[9E+09,9E+09,9E+09,9E+09,9E+09,9E+09]];
    CONST robtarget Target_2660:=[[178.528914118,250.655884716,1.937841584],[0.000067748,0.768582902,0.639750195,0.000081879],[-1,-1,1,0],[9E+09,9E+09,9E+09,9E+09,9E+09,9E+09]];
    CONST robtarget Target_2670:=[[190.529443062,250.490661918,1.940392125],[0.000067748,0.768582902,0.639750195,0.000081879],[-1,-1,1,0],[9E+09,9E+09,9E+09,9E+09,9E+09,9E+09]];
    CONST robtarget Target_2680:=[[199.747951614,244.117350671,1.942347485],[0.000067748,0.768582902,0.639750195,0.000081879],[-1,-1,1,0],[9E+09,9E+09,9E+09,9E+09,9E+09,9E+09]];
    CONST robtarget Target_2690:=[[202.361271577,239.524904867,1.942900062],[0.000067748,0.768582902,0.639750195,0.000081879],[-1,-1,1,0],[9E+09,9E+09,9E+09,9E+09,9E+09,9E+09]];
    CONST robtarget Target_2700:=[[189.948572595,243.888950815,1.94026454],[0.000067748,0.768582902,0.639750195,0.000081879],[-1,-1,1,0],[9E+09,9E+09,9E+09,9E+09,9E+09,9E+09]];
    CONST robtarget Target_2710:=[[182.349763893,243.466927465,1.938649193],[0.000067748,0.768582902,0.639750195,0.000081879],[-1,-1,1,0],[9E+09,9E+09,9E+09,9E+09,9E+09,9E+09]];
    CONST robtarget Target_2720:=[[179.756150537,241.259401825,1.938096556],[0.000067748,0.768582902,0.639750195,0.000081879],[-1,-1,1,0],[9E+09,9E+09,9E+09,9E+09,9E+09,9E+09]];
    CONST robtarget Target_2730:=[[169.757931574,240.630424043,1.935971098],[0.000067748,0.768582902,0.639750195,0.000081879],[-1,-1,1,0],[9E+09,9E+09,9E+09,9E+09,9E+09,9E+09]];
    CONST robtarget Target_2740:=[[164.165490095,238.014205992,1.934780822],[0.000067748,0.768582902,0.639750195,0.000081879],[-1,-1,1,0],[9E+09,9E+09,9E+09,9E+09,9E+09,9E+09]];
    CONST robtarget Target_2750:=[[166.372436079,235.620591736,1.9352484],[0.000067748,0.768582902,0.639750195,0.000081879],[-1,-1,1,0],[9E+09,9E+09,9E+09,9E+09,9E+09,9E+09]];
    CONST robtarget Target_2760:=[[179.166585979,237.657678125,1.937968997],[0.000067748,0.768582902,0.639750195,0.000081879],[-1,-1,1,0],[9E+09,9E+09,9E+09,9E+09,9E+09,9E+09]];
    CONST robtarget Target_2770:=[[191.178127437,233.692471284,1.940519504],[0.000067748,0.768582902,0.639750195,0.000081879],[-1,-1,1,0],[9E+09,9E+09,9E+09,9E+09,9E+09,9E+09]];
    CONST robtarget Target_2780:=[[202.779817282,233.126090954,1.942985023],[0.000067748,0.768582902,0.639750195,0.000081879],[-1,-1,1,0],[9E+09,9E+09,9E+09,9E+09,9E+09,9E+09]];
    CONST robtarget Target_2790:=[[211.400646791,225.951044249,1.944812849],[0.000067748,0.768582902,0.639750195,0.000081879],[-1,-1,1,0],[9E+09,9E+09,9E+09,9E+09,9E+09,9E+09]];
    CONST robtarget Target_2800:=[[221.607559001,223.580614236,1.946980789],[0.000067748,0.768582902,0.639750195,0.000081879],[-1,-1,1,0],[9E+09,9E+09,9E+09,9E+09,9E+09,9E+09]];
    CONST robtarget Target_2810:=[[229.031871213,215.202094933,1.94855355],[0.000067748,0.768582902,0.639750195,0.000081879],[-1,-1,1,0],[9E+09,9E+09,9E+09,9E+09,9E+09,9E+09]];
    CONST robtarget Target_2820:=[[229.850994835,208.604441073,1.948723528],[0.000067748,0.768582902,0.639750195,0.000081879],[-1,-1,1,0],[9E+09,9E+09,9E+09,9E+09,9E+09,9E+09]];
    CONST robtarget Target_2830:=[[226.263761367,204.194026641,1.947958326],[0.000067748,0.768582902,0.639750195,0.000081879],[-1,-1,1,0],[9E+09,9E+09,9E+09,9E+09,9E+09,9E+09]];
    CONST robtarget Target_2840:=[[224.262030993,204.788228061,1.947533241],[0.000067748,0.768582902,0.639750195,0.000081879],[-1,-1,1,0],[9E+09,9E+09,9E+09,9E+09,9E+09,9E+09]];
    CONST robtarget Target_2850:=[[221.435960542,213.780075783,1.946938194],[0.000067748,0.768582902,0.639750195,0.000081879],[-1,-1,1,0],[9E+09,9E+09,9E+09,9E+09,9E+09,9E+09]];
    CONST robtarget Target_2860:=[[217.427283339,216.768471064,1.946088039],[0.000067748,0.768582902,0.639750195,0.000081879],[-1,-1,1,0],[9E+09,9E+09,9E+09,9E+09,9E+09,9E+09]];
    CONST robtarget Target_2870:=[[205.626753551,216.934273468,1.943580007],[0.000067748,0.768582902,0.639750195,0.000081879],[-1,-1,1,0],[9E+09,9E+09,9E+09,9E+09,9E+09,9E+09]];
    CONST robtarget Target_2880:=[[200.006490981,223.918015103,1.942389816],[0.000067748,0.768582902,0.639750195,0.000081879],[-1,-1,1,0],[9E+09,9E+09,9E+09,9E+09,9E+09,9E+09]];
    CONST robtarget Target_2890:=[[192.405943462,224.095989234,1.940774474],[0.000067748,0.768582902,0.639750195,0.000081879],[-1,-1,1,0],[9E+09,9E+09,9E+09,9E+09,9E+09,9E+09]];
    CONST robtarget Target_2900:=[[188.010598886,222.48324462,1.939839261],[0.000067748,0.768582902,0.639750195,0.000081879],[-1,-1,1,0],[9E+09,9E+09,9E+09,9E+09,9E+09,9E+09]];
    CONST robtarget Target_2910:=[[178.396149265,227.455402533,1.937798871],[0.000067748,0.768582902,0.639750195,0.000081879],[-1,-1,1,0],[9E+09,9E+09,9E+09,9E+09,9E+09,9E+09]];
    CONST robtarget Target_2920:=[[171.194440845,228.034534196,1.936268551],[0.000067748,0.768582902,0.639750195,0.000081879],[-1,-1,1,0],[9E+09,9E+09,9E+09,9E+09,9E+09,9E+09]];
    CONST robtarget Target_2930:=[[177.823972889,217.853704028,1.937671259],[0.000067748,0.768582902,0.639750195,0.000081879],[-1,-1,1,0],[9E+09,9E+09,9E+09,9E+09,9E+09,9E+09]];
    CONST robtarget Target_2940:=[[189.827399863,216.68848543,1.940221791],[0.000067748,0.768582902,0.639750195,0.000081879],[-1,-1,1,0],[9E+09,9E+09,9E+09,9E+09,9E+09,9E+09]];
    CONST robtarget Target_2950:=[[198.845909259,210.314594577,1.942134642],[0.000067748,0.768582902,0.639750195,0.000081879],[-1,-1,1,0],[9E+09,9E+09,9E+09,9E+09,9E+09,9E+09]];
    CONST robtarget Target_2960:=[[201.454012767,207.522141214,1.942687235],[0.000067748,0.768582902,0.639750195,0.000081879],[-1,-1,1,0],[9E+09,9E+09,9E+09,9E+09,9E+09,9E+09]];
    CONST robtarget Target_2970:=[[210.458611619,205.948230205,1.944600128],[0.000067748,0.768582902,0.639750195,0.000081879],[-1,-1,1,0],[9E+09,9E+09,9E+09,9E+09,9E+09,9E+09]];
    CONST robtarget Target_2980:=[[219.279440284,198.773763106,1.946470462],[0.000067748,0.768582902,0.639750195,0.000081879],[-2,-1,1,0],[9E+09,9E+09,9E+09,9E+09,9E+09,9E+09]];
    CONST robtarget Target_2990:=[[221.501456026,191.180170687,1.946937995],[0.000067748,0.768582902,0.639750195,0.000081879],[-2,-1,1,0],[9E+09,9E+09,9E+09,9E+09,9E+09,9E+09]];
    CONST robtarget Target_3000:=[[228.515916624,186.200477895,1.948425767],[0.000067748,0.768582902,0.639750195,0.000081879],[-2,-1,1,0],[9E+09,9E+09,9E+09,9E+09,9E+09,9E+09]];
    CONST robtarget Target_3010:=[[232.93908229,178.213262822,1.949360896],[0.000067748,0.768582902,0.639750195,0.000081879],[-2,-1,1,0],[9E+09,9E+09,9E+09,9E+09,9E+09,9E+09]];
    CONST robtarget Target_3020:=[[232.353574975,173.211545,1.949233325],[0.000067748,0.768582902,0.639750195,0.000081879],[-2,-1,1,0],[9E+09,9E+09,9E+09,9E+09,9E+09,9E+09]];
    CONST robtarget Target_3030:=[[226.96287147,169.995909075,1.948085552],[0.000067748,0.768582902,0.639750195,0.000081879],[-2,-1,1,0],[9E+09,9E+09,9E+09,9E+09,9E+09,9E+09]];
    CONST robtarget Target_3040:=[[223.931005802,180.987168792,1.947448014],[0.000067748,0.768582902,0.639750195,0.000081879],[-2,-1,1,0],[9E+09,9E+09,9E+09,9E+09,9E+09,9E+09]];
    CONST robtarget Target_3050:=[[210.116573913,185.947154979,1.944514934],[0.000067748,0.768582902,0.639750195,0.000081879],[-2,-1,1,0],[9E+09,9E+09,9E+09,9E+09,9E+09,9E+09]];
    CONST robtarget Target_3060:=[[208.293976876,193.74190577,1.944132421],[0.000067748,0.768582902,0.639750195,0.000081879],[-2,-1,1,0],[9E+09,9E+09,9E+09,9E+09,9E+09,9E+09]];
    CONST robtarget Target_3070:=[[202.281250874,198.124499112,1.942857188],[0.000067748,0.768582902,0.639750195,0.000081879],[-2,-1,1,0],[9E+09,9E+09,9E+09,9E+09,9E+09,9E+09]];
    CONST robtarget Target_3080:=[[191.673760748,200.693769073,1.940604232],[0.000067748,0.768582902,0.639750195,0.000081879],[-1,-1,1,0],[9E+09,9E+09,9E+09,9E+09,9E+09,9E+09]];
    CONST robtarget Target_3090:=[[186.455814914,206.87867328,1.939499051],[0.000067748,0.768582902,0.639750195,0.000081879],[-1,-1,1,0],[9E+09,9E+09,9E+09,9E+09,9E+09,9E+09]];
    CONST robtarget Target_3100:=[[177.849475555,209.053740982,1.937671182],[0.000067748,0.768582902,0.639750195,0.000081879],[-1,-1,1,0],[9E+09,9E+09,9E+09,9E+09,9E+09,9E+09]];
    CONST robtarget Target_3110:=[[180.080764994,198.260162001,1.938138686],[0.000067748,0.768582902,0.639750195,0.000081879],[-2,-1,1,0],[9E+09,9E+09,9E+09,9E+09,9E+09,9E+09]];
    CONST robtarget Target_3120:=[[190.684777485,196.890887,1.940391653],[0.000067748,0.768582902,0.639750195,0.000081879],[-2,-1,1,0],[9E+09,9E+09,9E+09,9E+09,9E+09,9E+09]];
    CONST robtarget Target_3130:=[[199.50270812,190.716415702,1.942261996],[0.000067748,0.768582902,0.639750195,0.000081879],[-2,-1,1,0],[9E+09,9E+09,9E+09,9E+09,9E+09,9E+09]];
    CONST robtarget Target_3140:=[[202.720662397,184.525715434,1.942942087],[0.000067748,0.768582902,0.639750195,0.000081879],[-2,-1,1,0],[9E+09,9E+09,9E+09,9E+09,9E+09,9E+09]];
    CONST robtarget Target_3150:=[[209.529327779,181.545434637,1.944387368],[0.000067748,0.768582902,0.639750195,0.000081879],[-2,-1,1,0],[9E+09,9E+09,9E+09,9E+09,9E+09,9E+09]];
    CONST robtarget Target_3160:=[[216.749003988,174.76632901,1.945917633],[0.000067748,0.768582902,0.639750195,0.000081879],[-2,-1,1,0],[9E+09,9E+09,9E+09,9E+09,9E+09,9E+09]];
    CONST robtarget Target_3170:=[[217.97276277,166.569841081,1.946172616],[0.000067748,0.768582902,0.639750195,0.000081879],[-2,-1,1,0],[9E+09,9E+09,9E+09,9E+09,9E+09,9E+09]];
    CONST robtarget Target_3180:=[[225.584322805,162.591882908,1.947787924],[0.000067748,0.768582902,0.639750195,0.000081879],[-2,-1,1,0],[9E+09,9E+09,9E+09,9E+09,9E+09,9E+09]];
    CONST robtarget Target_3190:=[[230.206328414,155.005245761,1.948765565],[0.000067748,0.768582902,0.639750195,0.000081879],[-2,-1,1,0],[9E+09,9E+09,9E+09,9E+09,9E+09,9E+09]];
    CONST robtarget Target_3200:=[[229.22488003,148.602374606,1.948552964],[0.000067748,0.768582902,0.639750195,0.000081879],[-2,-1,1,0],[9E+09,9E+09,9E+09,9E+09,9E+09,9E+09]];
    CONST robtarget Target_3210:=[[223.635336581,144.986160755,1.947362679],[0.000067748,0.768582902,0.639750195,0.000081879],[-2,-1,1,0],[9E+09,9E+09,9E+09,9E+09,9E+09,9E+09]];
    CONST robtarget Target_3220:=[[222.427227163,147.78267136,1.947107649],[0.000067748,0.768582902,0.639750195,0.000081879],[-2,-1,1,0],[9E+09,9E+09,9E+09,9E+09,9E+09,9E+09]];
    CONST robtarget Target_3230:=[[219.804633503,155.575103727,1.9465551],[0.000067748,0.768582902,0.639750195,0.000081879],[-2,-1,1,0],[9E+09,9E+09,9E+09,9E+09,9E+09,9E+09]];
    CONST robtarget Target_3240:=[[213.195387671,158.75596329,1.94515233],[0.000067748,0.768582902,0.639750195,0.000081879],[-2,-1,1,0],[9E+09,9E+09,9E+09,9E+09,9E+09,9E+09]];
    CONST robtarget Target_3250:=[[206.190780376,160.33567036,1.943664527],[0.000067748,0.768582902,0.639750195,0.000081879],[-2,-1,1,0],[9E+09,9E+09,9E+09,9E+09,9E+09,9E+09]];
    CONST robtarget Target_3260:=[[206.160061255,170.935625847,1.943664621],[0.000067748,0.768582902,0.639750195,0.000081879],[-2,-1,1,0],[9E+09,9E+09,9E+09,9E+09,9E+09,9E+09]];
    CONST robtarget Target_3270:=[[199.943278855,176.717633704,1.942346891],[0.000067748,0.768582902,0.639750195,0.000081879],[-2,-1,1,0],[9E+09,9E+09,9E+09,9E+09,9E+09,9E+09]];
    CONST robtarget Target_3280:=[[192.33461685,179.695596077,1.940731574],[0.000067748,0.768582902,0.639750195,0.000081879],[-2,-1,1,0],[9E+09,9E+09,9E+09,9E+09,9E+09,9E+09]];
    CONST robtarget Target_3290:=[[191.514334016,186.693248257,1.9405616],[0.000067748,0.768582902,0.639750195,0.000081879],[-2,-1,1,0],[9E+09,9E+09,9E+09,9E+09,9E+09,9E+09]];
    CONST robtarget Target_3300:=[[183.70219522,190.870625985,1.938903784],[0.000067748,0.768582902,0.639750195,0.000081879],[-2,-1,1,0],[9E+09,9E+09,9E+09,9E+09,9E+09,9E+09]];
    CONST robtarget Target_3310:=[[175.504548263,190.046865496,1.937160906],[0.000067748,0.768582902,0.639750195,0.000081879],[-2,-1,1,0],[9E+09,9E+09,9E+09,9E+09,9E+09,9E+09]];
    CONST robtarget Target_3320:=[[183.542768488,176.870105169,1.938861152],[0.000067748,0.768582902,0.639750195,0.000081879],[-2,-1,1,0],[9E+09,9E+09,9E+09,9E+09,9E+09,9E+09]];
    CONST robtarget Target_3330:=[[193.955475913,172.50026316,1.941071583],[0.000067748,0.768582902,0.639750195,0.000081879],[-2,-1,1,0],[9E+09,9E+09,9E+09,9E+09,9E+09,9E+09]];
    CONST robtarget Target_3340:=[[200.179793192,164.118266221,1.942389289],[0.000067748,0.768582902,0.639750195,0.000081879],[-2,-1,1,0],[9E+09,9E+09,9E+09,9E+09,9E+09,9E+09]];
    CONST robtarget Target_3350:=[[200.998916814,157.520612361,1.942559268],[0.000067748,0.768582902,0.639750195,0.000081879],[-2,-1,1,0],[9E+09,9E+09,9E+09,9E+09,9E+09,9E+09]];
    CONST robtarget Target_3360:=[[208.021491897,149.740931327,1.944047015],[0.000067748,0.768582902,0.639750195,0.000081879],[-2,-1,1,0],[9E+09,9E+09,9E+09,9E+09,9E+09,9E+09]];
    CONST robtarget Target_3370:=[[208.244095689,141.941543687,1.944089456],[0.000067748,0.768582902,0.639750195,0.000081879],[-2,-1,1,0],[9E+09,9E+09,9E+09,9E+09,9E+09,9E+09]];
    CONST robtarget Target_3380:=[[216.437105797,144.365297457,1.945832348],[0.000067748,0.768582902,0.639750195,0.000081879],[-2,-1,1,0],[9E+09,9E+09,9E+09,9E+09,9E+09,9E+09]];
    CONST robtarget Target_3390:=[[223.255044876,138.185030098,1.947277601],[0.000067748,0.768582902,0.639750195,0.000081879],[-2,-1,1,0],[9E+09,9E+09,9E+09,9E+09,9E+09,9E+09]];
    CONST robtarget Target_3400:=[[225.872422081,132.192590172,1.947830165],[0.000067748,0.768582902,0.639750195,0.000081879],[-2,-1,1,0],[9E+09,9E+09,9E+09,9E+09,9E+09,9E+09]];
    CONST robtarget Target_3410:=[[225.309519401,119.390905105,1.947702526],[0.000067748,0.768582902,0.639750195,0.000081879],[-2,-1,1,0],[9E+09,9E+09,9E+09,9E+09,9E+09,9E+09]];
    CONST robtarget Target_3420:=[[219.725192407,113.974698812,1.946512225],[0.000067748,0.768582902,0.639750195,0.000081879],[-2,-1,1,0],[9E+09,9E+09,9E+09,9E+09,9E+09,9E+09]];
    CONST robtarget Target_3430:=[[207.72234504,114.93991825,1.943961691],[0.000067748,0.768582902,0.639750195,0.000081879],[-2,-1,1,0],[9E+09,9E+09,9E+09,9E+09,9E+09,9E+09]];
    CONST robtarget Target_3440:=[[189.306193753,120.486570978,1.940050908],[0.000067748,0.768582902,0.639750195,0.000081879],[-2,-1,1,0],[9E+09,9E+09,9E+09,9E+09,9E+09,9E+09]];
    CONST robtarget JP10:=[[-12.78,-790.69,1044.10],[0.0258551,0.70146,0.711725,-0.027096],[-2,0,-1,0],[9E+9,9E+9,9E+9,9E+9,9E+9,9E+9]];
    !***********************************************************
    !
    ! Module:  Module1
    !
    ! Description:
    !   <Insert description here>
    !
    ! Author: toodl
    !
    ! Version: 1.0
    !
    !***********************************************************
    
    
    !***********************************************************
    !
    ! Procedure main
    !
    !   This is the entry point of your program
    !
    !***********************************************************
    PROC rrmain()
        !Add your code here
        MoveJ JP10, v1000, z50, tool0;
        Hu;
        Tou;
        Wei;
        MoveJ JP10, v1000, z50, tool0;
    ENDPROC
    PROC Hu()
        Path_10;
    ENDPROC
    PROC Tou()
        Path_20;
    ENDPROC
    PROC Wei()
        Path_30;
    ENDPROC
    PROC Path_10()
        MoveL Target_10,v1000,z100,tool0\WObj:=Workobject_1;
        MoveL Target_20,v1000,z100,tool0\WObj:=Workobject_1;
        MoveL Target_30,v1000,z100,tool0\WObj:=Workobject_1;
        MoveL Target_40,v1000,z100,tool0\WObj:=Workobject_1;
        MoveL Target_50,v1000,z100,tool0\WObj:=Workobject_1;
        MoveL Target_60,v1000,z100,tool0\WObj:=Workobject_1;
        MoveL Target_70,v1000,z100,tool0\WObj:=Workobject_1;
        MoveL Target_80,v1000,z100,tool0\WObj:=Workobject_1;
        MoveL Target_90,v1000,z100,tool0\WObj:=Workobject_1;
        MoveL Target_100,v1000,z100,tool0\WObj:=Workobject_1;
        MoveL Target_110,v1000,z100,tool0\WObj:=Workobject_1;
        MoveL Target_120,v1000,z100,tool0\WObj:=Workobject_1;
        MoveL Target_130,v1000,z100,tool0\WObj:=Workobject_1;
        MoveL Target_140,v1000,z100,tool0\WObj:=Workobject_1;
        MoveL Target_150,v1000,z100,tool0\WObj:=Workobject_1;
        MoveL Target_160,v1000,z100,tool0\WObj:=Workobject_1;
        MoveL Target_170,v1000,z100,tool0\WObj:=Workobject_1;
        MoveL Target_180,v1000,z100,tool0\WObj:=Workobject_1;
        MoveL Target_190,v1000,z100,tool0\WObj:=Workobject_1;
        MoveL Target_200,v1000,z100,tool0\WObj:=Workobject_1;
        MoveL Target_210,v1000,z100,tool0\WObj:=Workobject_1;
        MoveL Target_220,v1000,z100,tool0\WObj:=Workobject_1;
        MoveL Target_230,v1000,z100,tool0\WObj:=Workobject_1;
        MoveL Target_240,v1000,z100,tool0\WObj:=Workobject_1;
        MoveL Target_250,v1000,z100,tool0\WObj:=Workobject_1;
        MoveL Target_260,v1000,z100,tool0\WObj:=Workobject_1;
        MoveL Target_270,v1000,z100,tool0\WObj:=Workobject_1;
        MoveL Target_280,v1000,z100,tool0\WObj:=Workobject_1;
        MoveL Target_290,v1000,z100,tool0\WObj:=Workobject_1;
        MoveL Target_300,v1000,z100,tool0\WObj:=Workobject_1;
        MoveL Target_310,v1000,z100,tool0\WObj:=Workobject_1;
        MoveL Target_320,v1000,z100,tool0\WObj:=Workobject_1;
        MoveL Target_330,v1000,z100,tool0\WObj:=Workobject_1;
        MoveL Target_340,v1000,z100,tool0\WObj:=Workobject_1;
        MoveL Target_350,v1000,z100,tool0\WObj:=Workobject_1;
        MoveL Target_360,v1000,z100,tool0\WObj:=Workobject_1;
        MoveL Target_370,v1000,z100,tool0\WObj:=Workobject_1;
        MoveL Target_380,v1000,z100,tool0\WObj:=Workobject_1;
        MoveL Target_390,v1000,z100,tool0\WObj:=Workobject_1;
        MoveL Target_400,v1000,z100,tool0\WObj:=Workobject_1;
        MoveL Target_410,v1000,z100,tool0\WObj:=Workobject_1;
        MoveL Target_420,v1000,z100,tool0\WObj:=Workobject_1;
        MoveL Target_430,v1000,z100,tool0\WObj:=Workobject_1;
        MoveL Target_440,v1000,z100,tool0\WObj:=Workobject_1;
        MoveL Target_450,v1000,z100,tool0\WObj:=Workobject_1;
        MoveL Target_460,v1000,z100,tool0\WObj:=Workobject_1;
        MoveL Target_470,v1000,z100,tool0\WObj:=Workobject_1;
        MoveL Target_480,v1000,z100,tool0\WObj:=Workobject_1;
        MoveL Target_490,v1000,z100,tool0\WObj:=Workobject_1;
        MoveL Target_500,v1000,z100,tool0\WObj:=Workobject_1;
        MoveL Target_510,v1000,z100,tool0\WObj:=Workobject_1;
        MoveL Target_520,v1000,z100,tool0\WObj:=Workobject_1;
        MoveL Target_530,v1000,z100,tool0\WObj:=Workobject_1;
        MoveL Target_540,v1000,z100,tool0\WObj:=Workobject_1;
        MoveL Target_550,v1000,z100,tool0\WObj:=Workobject_1;
        MoveL Target_560,v1000,z100,tool0\WObj:=Workobject_1;
        MoveL Target_570,v1000,z100,tool0\WObj:=Workobject_1;
        MoveL Target_580,v1000,z100,tool0\WObj:=Workobject_1;
        MoveL Target_590,v1000,z100,tool0\WObj:=Workobject_1;
        MoveL Target_600,v1000,z100,tool0\WObj:=Workobject_1;
        MoveL Offs(Target_600,0,0,200), v1000, z100, tool0\WObj:=Workobject_1;
    ENDPROC
    PROC Path_20()
        MoveL Target_610,v1000,z100,tool0\WObj:=Workobject_1;
        MoveL Target_620,v1000,z100,tool0\WObj:=Workobject_1;
        MoveL Target_630,v1000,z100,tool0\WObj:=Workobject_1;
        MoveL Target_640,v1000,z100,tool0\WObj:=Workobject_1;
        MoveL Target_650,v1000,z100,tool0\WObj:=Workobject_1;
        MoveL Target_660,v1000,z100,tool0\WObj:=Workobject_1;
        MoveL Target_670,v1000,z100,tool0\WObj:=Workobject_1;
        MoveL Target_680,v1000,z100,tool0\WObj:=Workobject_1;
        MoveL Target_690,v1000,z100,tool0\WObj:=Workobject_1;
        MoveL Target_700,v1000,z100,tool0\WObj:=Workobject_1;
        MoveL Target_710,v1000,z100,tool0\WObj:=Workobject_1;
        MoveL Target_720,v1000,z100,tool0\WObj:=Workobject_1;
        MoveL Target_730,v1000,z100,tool0\WObj:=Workobject_1;
        MoveL Target_740,v1000,z100,tool0\WObj:=Workobject_1;
        MoveL Target_750,v1000,z100,tool0\WObj:=Workobject_1;
        MoveL Target_760,v1000,z100,tool0\WObj:=Workobject_1;
        MoveL Target_770,v1000,z100,tool0\WObj:=Workobject_1;
        MoveL Target_780,v1000,z100,tool0\WObj:=Workobject_1;
        MoveL Target_790,v1000,z100,tool0\WObj:=Workobject_1;
        MoveL Target_800,v1000,z100,tool0\WObj:=Workobject_1;
        MoveL Target_810,v1000,z100,tool0\WObj:=Workobject_1;
        MoveL Target_820,v1000,z100,tool0\WObj:=Workobject_1;
        MoveL Target_830,v1000,z100,tool0\WObj:=Workobject_1;
        MoveL Target_840,v1000,z100,tool0\WObj:=Workobject_1;
        MoveL Target_850,v1000,z100,tool0\WObj:=Workobject_1;
        MoveL Target_860,v1000,z100,tool0\WObj:=Workobject_1;
        MoveL Target_870,v1000,z100,tool0\WObj:=Workobject_1;
        MoveL Target_880,v1000,z100,tool0\WObj:=Workobject_1;
        MoveL Target_890,v1000,z100,tool0\WObj:=Workobject_1;
        MoveL Target_900,v1000,z100,tool0\WObj:=Workobject_1;
        MoveL Target_910,v1000,z100,tool0\WObj:=Workobject_1;
        MoveL Target_920,v1000,z100,tool0\WObj:=Workobject_1;
        MoveL Target_930,v1000,z100,tool0\WObj:=Workobject_1;
        MoveL Target_940,v1000,z100,tool0\WObj:=Workobject_1;
        MoveL Target_950,v1000,z100,tool0\WObj:=Workobject_1;
        MoveL Target_960,v1000,z100,tool0\WObj:=Workobject_1;
        MoveL Target_970,v1000,z100,tool0\WObj:=Workobject_1;
        MoveL Target_980,v1000,z100,tool0\WObj:=Workobject_1;
        MoveL Target_990,v1000,z100,tool0\WObj:=Workobject_1;
        MoveL Target_1000,v1000,z100,tool0\WObj:=Workobject_1;
        MoveL Target_1010,v1000,z100,tool0\WObj:=Workobject_1;
        MoveL Target_1020,v1000,z100,tool0\WObj:=Workobject_1;
        MoveL Target_1030,v1000,z100,tool0\WObj:=Workobject_1;
        MoveL Target_1040,v1000,z100,tool0\WObj:=Workobject_1;
        MoveL Target_1050,v1000,z100,tool0\WObj:=Workobject_1;
        MoveL Target_1060,v1000,z100,tool0\WObj:=Workobject_1;
        MoveL Target_1070,v1000,z100,tool0\WObj:=Workobject_1;
        MoveL Target_1080,v1000,z100,tool0\WObj:=Workobject_1;
        MoveL Target_1090,v1000,z100,tool0\WObj:=Workobject_1;
        MoveL Target_1100,v1000,z100,tool0\WObj:=Workobject_1;
        MoveL Target_1110,v1000,z100,tool0\WObj:=Workobject_1;
        MoveL Target_1120,v1000,z100,tool0\WObj:=Workobject_1;
        MoveL Target_1130,v1000,z100,tool0\WObj:=Workobject_1;
        MoveL Target_1140,v1000,z100,tool0\WObj:=Workobject_1;
        MoveL Offs(Target_1140,0,0,200), v1000, z100, tool0\WObj:=Workobject_1;
    ENDPROC
    PROC Path_30()
        MoveL Target_1150,v1000,z100,tool0\WObj:=Workobject_1;
        MoveL Target_1160,v1000,z100,tool0\WObj:=Workobject_1;
        MoveL Target_1170,v1000,z100,tool0\WObj:=Workobject_1;
        MoveL Target_1180,v1000,z100,tool0\WObj:=Workobject_1;
        MoveL Target_1190,v1000,z100,tool0\WObj:=Workobject_1;
        MoveL Target_1200,v1000,z100,tool0\WObj:=Workobject_1;
        MoveL Target_1210,v1000,z100,tool0\WObj:=Workobject_1;
        MoveL Target_1220,v1000,z100,tool0\WObj:=Workobject_1;
        MoveL Target_1230,v1000,z100,tool0\WObj:=Workobject_1;
        MoveL Target_1240,v1000,z100,tool0\WObj:=Workobject_1;
        MoveL Target_1250,v1000,z100,tool0\WObj:=Workobject_1;
        MoveL Target_1260,v1000,z100,tool0\WObj:=Workobject_1;
        MoveL Target_1270,v1000,z100,tool0\WObj:=Workobject_1;
        MoveL Target_1280,v1000,z100,tool0\WObj:=Workobject_1;
        MoveL Target_1290,v1000,z100,tool0\WObj:=Workobject_1;
        MoveL Target_1300,v1000,z100,tool0\WObj:=Workobject_1;
        MoveL Target_1310,v1000,z100,tool0\WObj:=Workobject_1;
        MoveL Target_1320,v1000,z100,tool0\WObj:=Workobject_1;
        MoveL Target_1330,v1000,z100,tool0\WObj:=Workobject_1;
        MoveL Target_1340,v1000,z100,tool0\WObj:=Workobject_1;
        MoveL Target_1350,v1000,z100,tool0\WObj:=Workobject_1;
        MoveL Target_1360,v1000,z100,tool0\WObj:=Workobject_1;
        MoveL Target_1370,v1000,z100,tool0\WObj:=Workobject_1;
        MoveL Target_1380,v1000,z100,tool0\WObj:=Workobject_1;
        MoveL Target_1390,v1000,z100,tool0\WObj:=Workobject_1;
        MoveL Target_1400,v1000,z100,tool0\WObj:=Workobject_1;
        MoveL Target_1410,v1000,z100,tool0\WObj:=Workobject_1;
        MoveL Target_1420,v1000,z100,tool0\WObj:=Workobject_1;
        MoveL Target_1430,v1000,z100,tool0\WObj:=Workobject_1;
        MoveL Target_1440,v1000,z100,tool0\WObj:=Workobject_1;
        MoveL Target_1450,v1000,z100,tool0\WObj:=Workobject_1;
        MoveL Target_1460,v1000,z100,tool0\WObj:=Workobject_1;
        MoveL Target_1470,v1000,z100,tool0\WObj:=Workobject_1;
        MoveL Target_1480,v1000,z100,tool0\WObj:=Workobject_1;
        MoveL Target_1490,v1000,z100,tool0\WObj:=Workobject_1;
        MoveL Target_1500,v1000,z100,tool0\WObj:=Workobject_1;
        MoveL Target_1510,v1000,z100,tool0\WObj:=Workobject_1;
        MoveL Target_1520,v1000,z100,tool0\WObj:=Workobject_1;
        MoveL Target_1530,v1000,z100,tool0\WObj:=Workobject_1;
        MoveL Target_1540,v1000,z100,tool0\WObj:=Workobject_1;
        MoveL Target_1550,v1000,z100,tool0\WObj:=Workobject_1;
        MoveL Target_1560,v1000,z100,tool0\WObj:=Workobject_1;
        MoveL Target_1570,v1000,z100,tool0\WObj:=Workobject_1;
        MoveL Target_1580,v1000,z100,tool0\WObj:=Workobject_1;
        MoveL Target_1590,v1000,z100,tool0\WObj:=Workobject_1;
        MoveL Target_1600,v1000,z100,tool0\WObj:=Workobject_1;
        MoveL Target_1610,v1000,z100,tool0\WObj:=Workobject_1;
        MoveL Target_1620,v1000,z100,tool0\WObj:=Workobject_1;
        MoveL Target_1630,v1000,z100,tool0\WObj:=Workobject_1;
        MoveL Target_1640,v1000,z100,tool0\WObj:=Workobject_1;
        MoveL Target_1650,v1000,z100,tool0\WObj:=Workobject_1;
        MoveL Target_1660,v1000,z100,tool0\WObj:=Workobject_1;
        MoveL Target_1670,v1000,z100,tool0\WObj:=Workobject_1;
        MoveL Target_1680,v1000,z100,tool0\WObj:=Workobject_1;
        MoveL Target_1690,v1000,z100,tool0\WObj:=Workobject_1;
        MoveL Target_1700,v1000,z100,tool0\WObj:=Workobject_1;
        MoveL Target_1710,v1000,z100,tool0\WObj:=Workobject_1;
        MoveL Target_1720,v1000,z100,tool0\WObj:=Workobject_1;
        MoveL Target_1730,v1000,z100,tool0\WObj:=Workobject_1;
        MoveL Target_1740,v1000,z100,tool0\WObj:=Workobject_1;
        MoveL Target_1750,v1000,z100,tool0\WObj:=Workobject_1;
        MoveL Target_1760,v1000,z100,tool0\WObj:=Workobject_1;
        MoveL Target_1770,v1000,z100,tool0\WObj:=Workobject_1;
        MoveL Target_1780,v1000,z100,tool0\WObj:=Workobject_1;
        MoveL Target_1790,v1000,z100,tool0\WObj:=Workobject_1;
        MoveL Target_1800,v1000,z100,tool0\WObj:=Workobject_1;
        MoveL Target_1810,v1000,z100,tool0\WObj:=Workobject_1;
        MoveL Target_1820,v1000,z100,tool0\WObj:=Workobject_1;
        MoveL Target_1830,v1000,z100,tool0\WObj:=Workobject_1;
        MoveL Target_1840,v1000,z100,tool0\WObj:=Workobject_1;
        MoveL Target_1850,v1000,z100,tool0\WObj:=Workobject_1;
        MoveL Target_1860,v1000,z100,tool0\WObj:=Workobject_1;
        MoveL Target_1870,v1000,z100,tool0\WObj:=Workobject_1;
        MoveL Target_1880,v1000,z100,tool0\WObj:=Workobject_1;
        MoveL Target_1890,v1000,z100,tool0\WObj:=Workobject_1;
        MoveL Target_1900,v1000,z100,tool0\WObj:=Workobject_1;
        MoveL Target_1910,v1000,z100,tool0\WObj:=Workobject_1;
        MoveL Target_1920,v1000,z100,tool0\WObj:=Workobject_1;
        MoveL Target_1930,v1000,z100,tool0\WObj:=Workobject_1;
        MoveL Target_1940,v1000,z100,tool0\WObj:=Workobject_1;
        MoveL Target_1950,v1000,z100,tool0\WObj:=Workobject_1;
        MoveL Target_1960,v1000,z100,tool0\WObj:=Workobject_1;
        MoveL Target_1970,v1000,z100,tool0\WObj:=Workobject_1;
        MoveL Target_1980,v1000,z100,tool0\WObj:=Workobject_1;
        MoveL Target_1990,v1000,z100,tool0\WObj:=Workobject_1;
        MoveL Target_2000,v1000,z100,tool0\WObj:=Workobject_1;
        MoveL Target_2010,v1000,z100,tool0\WObj:=Workobject_1;
        MoveL Target_2020,v1000,z100,tool0\WObj:=Workobject_1;
        MoveL Target_2030,v1000,z100,tool0\WObj:=Workobject_1;
        MoveL Target_2040,v1000,z100,tool0\WObj:=Workobject_1;
        MoveL Target_2050,v1000,z100,tool0\WObj:=Workobject_1;
        MoveL Target_2060,v1000,z100,tool0\WObj:=Workobject_1;
        MoveL Target_2070,v1000,z100,tool0\WObj:=Workobject_1;
        MoveL Target_2080,v1000,z100,tool0\WObj:=Workobject_1;
        MoveL Target_2090,v1000,z100,tool0\WObj:=Workobject_1;
        MoveL Target_2100,v1000,z100,tool0\WObj:=Workobject_1;
        MoveL Target_2110,v1000,z100,tool0\WObj:=Workobject_1;
        MoveL Target_2120,v1000,z100,tool0\WObj:=Workobject_1;
        MoveL Target_2130,v1000,z100,tool0\WObj:=Workobject_1;
        MoveL Target_2140,v1000,z100,tool0\WObj:=Workobject_1;
        MoveL Target_2150,v1000,z100,tool0\WObj:=Workobject_1;
        MoveL Target_2160,v1000,z100,tool0\WObj:=Workobject_1;
        MoveL Target_2170,v1000,z100,tool0\WObj:=Workobject_1;
        MoveL Target_2180,v1000,z100,tool0\WObj:=Workobject_1;
        MoveL Target_2190,v1000,z100,tool0\WObj:=Workobject_1;
        MoveL Target_2200,v1000,z100,tool0\WObj:=Workobject_1;
        MoveL Target_2210,v1000,z100,tool0\WObj:=Workobject_1;
        MoveL Target_2220,v1000,z100,tool0\WObj:=Workobject_1;
        MoveL Target_2230,v1000,z100,tool0\WObj:=Workobject_1;
        MoveL Target_2240,v1000,z100,tool0\WObj:=Workobject_1;
        MoveL Target_2250,v1000,z100,tool0\WObj:=Workobject_1;
        MoveL Target_2260,v1000,z100,tool0\WObj:=Workobject_1;
        MoveL Target_2270,v1000,z100,tool0\WObj:=Workobject_1;
        MoveL Target_2280,v1000,z100,tool0\WObj:=Workobject_1;
        MoveL Target_2290,v1000,z100,tool0\WObj:=Workobject_1;
        MoveL Target_2300,v1000,z100,tool0\WObj:=Workobject_1;
        MoveL Target_2310,v1000,z100,tool0\WObj:=Workobject_1;
        MoveL Target_2320,v1000,z100,tool0\WObj:=Workobject_1;
        MoveL Target_2330,v1000,z100,tool0\WObj:=Workobject_1;
        MoveL Target_2340,v1000,z100,tool0\WObj:=Workobject_1;
        MoveL Target_2350,v1000,z100,tool0\WObj:=Workobject_1;
        MoveL Target_2360,v1000,z100,tool0\WObj:=Workobject_1;
        MoveL Target_2370,v1000,z100,tool0\WObj:=Workobject_1;
        MoveL Target_2380,v1000,z100,tool0\WObj:=Workobject_1;
        MoveL Target_2390,v1000,z100,tool0\WObj:=Workobject_1;
        MoveL Target_2400,v1000,z100,tool0\WObj:=Workobject_1;
        MoveL Target_2410,v1000,z100,tool0\WObj:=Workobject_1;
        MoveL Target_2420,v1000,z100,tool0\WObj:=Workobject_1;
        MoveL Target_2430,v1000,z100,tool0\WObj:=Workobject_1;
        MoveL Target_2440,v1000,z100,tool0\WObj:=Workobject_1;
        MoveL Target_2450,v1000,z100,tool0\WObj:=Workobject_1;
        MoveL Target_2460,v1000,z100,tool0\WObj:=Workobject_1;
        MoveL Target_2470,v1000,z100,tool0\WObj:=Workobject_1;
        MoveL Target_2480,v1000,z100,tool0\WObj:=Workobject_1;
        MoveL Target_2490,v1000,z100,tool0\WObj:=Workobject_1;
        MoveL Target_2500,v1000,z100,tool0\WObj:=Workobject_1;
        MoveL Target_2510,v1000,z100,tool0\WObj:=Workobject_1;
        MoveL Target_2520,v1000,z100,tool0\WObj:=Workobject_1;
        MoveL Target_2530,v1000,z100,tool0\WObj:=Workobject_1;
        MoveL Target_2540,v1000,z100,tool0\WObj:=Workobject_1;
        MoveL Target_2550,v1000,z100,tool0\WObj:=Workobject_1;
        MoveL Target_2560,v1000,z100,tool0\WObj:=Workobject_1;
        MoveL Target_2570,v1000,z100,tool0\WObj:=Workobject_1;
        MoveL Target_2580,v1000,z100,tool0\WObj:=Workobject_1;
        MoveL Target_2590,v1000,z100,tool0\WObj:=Workobject_1;
        MoveL Target_2600,v1000,z100,tool0\WObj:=Workobject_1;
        MoveL Target_2610,v1000,z100,tool0\WObj:=Workobject_1;
        MoveL Target_2620,v1000,z100,tool0\WObj:=Workobject_1;
        MoveL Target_2630,v1000,z100,tool0\WObj:=Workobject_1;
        MoveL Target_2640,v1000,z100,tool0\WObj:=Workobject_1;
        MoveL Target_2650,v1000,z100,tool0\WObj:=Workobject_1;
        MoveL Target_2660,v1000,z100,tool0\WObj:=Workobject_1;
        MoveL Target_2670,v1000,z100,tool0\WObj:=Workobject_1;
        MoveL Target_2680,v1000,z100,tool0\WObj:=Workobject_1;
        MoveL Target_2690,v1000,z100,tool0\WObj:=Workobject_1;
        MoveL Target_2700,v1000,z100,tool0\WObj:=Workobject_1;
        MoveL Target_2710,v1000,z100,tool0\WObj:=Workobject_1;
        MoveL Target_2720,v1000,z100,tool0\WObj:=Workobject_1;
        MoveL Target_2730,v1000,z100,tool0\WObj:=Workobject_1;
        MoveL Target_2740,v1000,z100,tool0\WObj:=Workobject_1;
        MoveL Target_2750,v1000,z100,tool0\WObj:=Workobject_1;
        MoveL Target_2760,v1000,z100,tool0\WObj:=Workobject_1;
        MoveL Target_2770,v1000,z100,tool0\WObj:=Workobject_1;
        MoveL Target_2780,v1000,z100,tool0\WObj:=Workobject_1;
        MoveL Target_2790,v1000,z100,tool0\WObj:=Workobject_1;
        MoveL Target_2800,v1000,z100,tool0\WObj:=Workobject_1;
        MoveL Target_2810,v1000,z100,tool0\WObj:=Workobject_1;
        MoveL Target_2820,v1000,z100,tool0\WObj:=Workobject_1;
        MoveL Target_2830,v1000,z100,tool0\WObj:=Workobject_1;
        MoveL Target_2840,v1000,z100,tool0\WObj:=Workobject_1;
        MoveL Target_2850,v1000,z100,tool0\WObj:=Workobject_1;
        MoveL Target_2860,v1000,z100,tool0\WObj:=Workobject_1;
        MoveL Target_2870,v1000,z100,tool0\WObj:=Workobject_1;
        MoveL Target_2880,v1000,z100,tool0\WObj:=Workobject_1;
        MoveL Target_2890,v1000,z100,tool0\WObj:=Workobject_1;
        MoveL Target_2900,v1000,z100,tool0\WObj:=Workobject_1;
        MoveL Target_2910,v1000,z100,tool0\WObj:=Workobject_1;
        MoveL Target_2920,v1000,z100,tool0\WObj:=Workobject_1;
        MoveL Target_2930,v1000,z100,tool0\WObj:=Workobject_1;
        MoveL Target_2940,v1000,z100,tool0\WObj:=Workobject_1;
        MoveL Target_2950,v1000,z100,tool0\WObj:=Workobject_1;
        MoveL Target_2960,v1000,z100,tool0\WObj:=Workobject_1;
        MoveL Target_2970,v1000,z100,tool0\WObj:=Workobject_1;
        MoveL Target_2980,v1000,z100,tool0\WObj:=Workobject_1;
        MoveL Target_2990,v1000,z100,tool0\WObj:=Workobject_1;
        MoveL Target_3000,v1000,z100,tool0\WObj:=Workobject_1;
        MoveL Target_3010,v1000,z100,tool0\WObj:=Workobject_1;
        MoveL Target_3020,v1000,z100,tool0\WObj:=Workobject_1;
        MoveL Target_3030,v1000,z100,tool0\WObj:=Workobject_1;
        MoveL Target_3040,v1000,z100,tool0\WObj:=Workobject_1;
        MoveL Target_3050,v1000,z100,tool0\WObj:=Workobject_1;
        MoveL Target_3060,v1000,z100,tool0\WObj:=Workobject_1;
        MoveL Target_3070,v1000,z100,tool0\WObj:=Workobject_1;
        MoveL Target_3080,v1000,z100,tool0\WObj:=Workobject_1;
        MoveL Target_3090,v1000,z100,tool0\WObj:=Workobject_1;
        MoveL Target_3100,v1000,z100,tool0\WObj:=Workobject_1;
        MoveL Target_3110,v1000,z100,tool0\WObj:=Workobject_1;
        MoveL Target_3120,v1000,z100,tool0\WObj:=Workobject_1;
        MoveL Target_3130,v1000,z100,tool0\WObj:=Workobject_1;
        MoveL Target_3140,v1000,z100,tool0\WObj:=Workobject_1;
        MoveL Target_3150,v1000,z100,tool0\WObj:=Workobject_1;
        MoveL Target_3160,v1000,z100,tool0\WObj:=Workobject_1;
        MoveL Target_3170,v1000,z100,tool0\WObj:=Workobject_1;
        MoveL Target_3180,v1000,z100,tool0\WObj:=Workobject_1;
        MoveL Target_3190,v1000,z100,tool0\WObj:=Workobject_1;
        MoveL Target_3200,v1000,z100,tool0\WObj:=Workobject_1;
        MoveL Target_3210,v1000,z100,tool0\WObj:=Workobject_1;
        MoveL Target_3220,v1000,z100,tool0\WObj:=Workobject_1;
        MoveL Target_3230,v1000,z100,tool0\WObj:=Workobject_1;
        MoveL Target_3240,v1000,z100,tool0\WObj:=Workobject_1;
        MoveL Target_3250,v1000,z100,tool0\WObj:=Workobject_1;
        MoveL Target_3260,v1000,z100,tool0\WObj:=Workobject_1;
        MoveL Target_3270,v1000,z100,tool0\WObj:=Workobject_1;
        MoveL Target_3280,v1000,z100,tool0\WObj:=Workobject_1;
        MoveL Target_3290,v1000,z100,tool0\WObj:=Workobject_1;
        MoveL Target_3300,v1000,z100,tool0\WObj:=Workobject_1;
        MoveL Target_3310,v1000,z100,tool0\WObj:=Workobject_1;
        MoveL Target_3320,v1000,z100,tool0\WObj:=Workobject_1;
        MoveL Target_3330,v1000,z100,tool0\WObj:=Workobject_1;
        MoveL Target_3340,v1000,z100,tool0\WObj:=Workobject_1;
        MoveL Target_3350,v1000,z100,tool0\WObj:=Workobject_1;
        MoveL Target_3360,v1000,z100,tool0\WObj:=Workobject_1;
        MoveL Target_3370,v1000,z100,tool0\WObj:=Workobject_1;
        MoveL Target_3380,v1000,z100,tool0\WObj:=Workobject_1;
        MoveL Target_3390,v1000,z100,tool0\WObj:=Workobject_1;
        MoveL Target_3400,v1000,z100,tool0\WObj:=Workobject_1;
        MoveL Target_3410,v1000,z100,tool0\WObj:=Workobject_1;
        MoveL Target_3420,v1000,z100,tool0\WObj:=Workobject_1;
        MoveL Target_3430,v1000,z100,tool0\WObj:=Workobject_1;
        MoveL Target_3440,v1000,z100,tool0\WObj:=Workobject_1;
        MoveL Offs(Target_3440,0,0,200), v1000, z100, tool0\WObj:=Workobject_1;
    ENDPROC
ENDMODULE